;FLAVOR:Marlin
;TIME:1949
;Filament used: 1.08098m
;Layer height: 0.2
;MINX:59.74
;MINY:101.5
;MINZ:0.2
;MAXX:164.184
;MAXY:153.222
;MAXZ:9
;TARGET_MACHINE.NAME:Creality Ender-3
;Generated with Cura_SteamEngine 5.6.0
M140 S50
M105
M190 S50
M104 S200
M105
M109 S200
M82 ;absolute extrusion mode
; Ender 3 Custom Start G-code
G92 E0 ; Reset Extruder
G28 ; Home all axes
G1 Z2.0 F3000 ; Move Z Axis up little to prevent scratching of Heat Bed
G1 X0.1 Y20 Z0.3 F5000.0 ; Move to start position
G1 X0.1 Y200.0 Z0.3 F1500.0 E15 ; Draw the first line
G1 X0.4 Y200.0 Z0.3 F5000.0 ; Move to side a little
G1 X0.4 Y20 Z0.3 F1500.0 E30 ; Draw the second line
G92 E0 ; Reset Extruder
G1 Z2.0 F3000 ; Move Z Axis up little to prevent scratching of Heat Bed
G1 X5 Y20 Z0.3 F5000.0 ; Move over to prevent blob squish
G92 E0
G92 E0
G1 F2700 E-5
;LAYER_COUNT:45
;LAYER:0
M107
G1 F300 Z0.4
G0 F6000 X67.049 Y111.779 Z0.4
;TYPE:SKIRT
G1 F300 Z0.2
G1 F2700 E0
G1 F1200 X67.513 Y111.511 E0.01782
G1 X68.618 Y110.957 E0.05893
G1 X69.165 Y110.722 E0.07874
G1 X70.503 Y110.249 E0.12594
G1 X71.077 Y110.089 E0.14576
G1 X72.409 Y109.805 E0.19105
G1 X72.966 Y109.723 E0.20978
G1 X73.714 Y109.641 E0.23481
G1 X74.722 Y109.565 E0.26843
G1 X77.278 Y109.336 E0.35378
G1 X79.786 Y109.038 E0.43779
G1 X82.283 Y108.672 E0.52172
G1 X84.789 Y108.229 E0.60637
G1 X87.209 Y107.733 E0.68853
G1 X89.663 Y107.154 E0.77239
G1 X92.089 Y106.511 E0.85587
G1 X94.552 Y105.783 E0.94129
G1 X96.923 Y105.007 E1.02426
G1 X99.268 Y104.167 E1.10711
G1 X102.141 Y103.036 E1.20981
G1 X103.227 Y102.594 E1.2488
G1 X104.185 Y102.256 E1.28259
G1 X104.655 Y102.115 E1.29891
G1 X105.535 Y101.892 E1.32911
G1 X105.96 Y101.804 E1.34354
G1 X106.851 Y101.659 E1.37357
G1 X107.335 Y101.601 E1.38978
G1 X108.422 Y101.526 E1.42602
G1 X109.927 Y101.5 E1.47608
G1 X125.311 Y101.5 E1.98776
G1 X126.312 Y101.513 E2.02105
G1 X127.02 Y101.544 E2.04462
G1 X127.816 Y101.617 E2.07121
G1 X128.298 Y101.679 E2.08737
G1 X129.077 Y101.81 E2.11365
G1 X129.519 Y101.902 E2.12866
G1 X130.636 Y102.196 E2.16708
G1 X131.061 Y102.334 E2.18194
G1 X131.761 Y102.587 E2.2067
G1 X132.162 Y102.747 E2.22106
G1 X132.953 Y103.104 E2.24992
G1 X133.432 Y103.347 E2.26779
G1 X134.228 Y103.793 E2.29813
G1 X134.569 Y104.004 E2.31147
G1 X135.316 Y104.511 E2.3415
G1 X135.763 Y104.842 E2.36
G1 X136.528 Y105.467 E2.39286
G1 X136.802 Y105.713 E2.4051
G1 X137.339 Y106.233 E2.42996
G1 X137.668 Y106.572 E2.44568
G1 X138.309 Y107.298 E2.47789
G1 X140.433 Y109.937 E2.59056
G1 X142.031 Y111.81 E2.67245
G1 X143.742 Y113.704 E2.75734
G1 X145.473 Y115.513 E2.84062
G1 X147.261 Y117.279 E2.9242
G1 X149.113 Y119.01 E3.00852
G1 X150.975 Y120.651 E3.09107
G1 X152.954 Y122.3 E3.17674
G1 X154.894 Y123.826 E3.25884
G1 X156.983 Y125.373 E3.3453
G1 X157.94 Y126.06 E3.38448
G1 X158.372 Y126.386 E3.40248
G1 X158.794 Y126.724 E3.42046
G1 X159.52 Y127.36 E3.45256
G1 X160.156 Y128.009 E3.48279
G1 X160.926 Y128.907 E3.52213
G1 X161.291 Y129.383 E3.54208
G1 X161.827 Y130.149 E3.57318
G1 X162.172 Y130.727 E3.59557
G1 X162.432 Y131.198 E3.61346
G1 X162.964 Y132.309 E3.65443
G1 X163.195 Y132.873 E3.6747
G1 X163.499 Y133.723 E3.70473
G1 X163.664 Y134.304 E3.72481
G1 X163.783 Y134.777 E3.74104
G1 X163.996 Y135.87 E3.77807
G1 X164.081 Y136.487 E3.79879
G1 X164.17 Y137.44 E3.83062
G1 X164.183 Y137.948 E3.84753
G1 X164.184 Y138.469 E3.86485
G1 X164.097 Y139.871 E3.91157
G1 X164.024 Y140.434 E3.93046
G1 X163.861 Y141.381 E3.96242
G1 X163.735 Y141.894 E3.97999
G1 X163.58 Y142.464 E3.99963
G1 X163.288 Y143.377 E4.03151
G1 X163.082 Y143.894 E4.05003
G1 X162.882 Y144.358 E4.06683
G1 X162.325 Y145.472 E4.10826
G1 X162.049 Y145.952 E4.12667
G1 X161.318 Y147.055 E4.17068
G1 X160.989 Y147.489 E4.1888
G1 X160.192 Y148.422 E4.22961
G1 X159.77 Y148.86 E4.24984
G1 X158.821 Y149.73 E4.29266
G1 X158.368 Y150.096 E4.31203
G1 X157.592 Y150.665 E4.34403
G1 X157.063 Y150.996 E4.36479
G1 X156.545 Y151.299 E4.38475
G1 X155.413 Y151.872 E4.42695
G1 X154.836 Y152.12 E4.44784
G1 X153.53 Y152.582 E4.49391
G1 X153 Y152.731 E4.51222
G1 X151.794 Y152.995 E4.55328
G1 X151.197 Y153.089 E4.57339
G1 X150.272 Y153.191 E4.60434
G1 X149.713 Y153.214 E4.62295
G1 X149.169 Y153.222 E4.64104
G1 X148.007 Y153.174 E4.67972
G1 X147.634 Y153.138 E4.69219
G1 X147.001 Y153.056 E4.71342
G1 X145.568 Y152.826 E4.76169
G1 X74.282 Y139.99 E7.1708
G1 X72.17 Y139.634 E7.24204
G1 X71.164 Y139.412 E7.2763
G1 X70.677 Y139.278 E7.2931
G1 X69.516 Y138.889 E7.33383
G1 X68.961 Y138.666 E7.35372
G1 X67.729 Y138.077 E7.39914
G1 X67.21 Y137.787 E7.41891
G1 X66.083 Y137.056 E7.46359
G1 X65.537 Y136.649 E7.48624
G1 X64.816 Y136.059 E7.51723
G1 X64.371 Y135.639 E7.53758
G1 X63.99 Y135.256 E7.55555
G1 X63.165 Y134.326 E7.5969
G1 X62.825 Y133.895 E7.61515
G1 X62.285 Y133.144 E7.64592
G1 X61.853 Y132.453 E7.67302
G1 X61.648 Y132.098 E7.68666
G1 X61.078 Y130.96 E7.72899
G1 X60.86 Y130.452 E7.74738
G1 X60.38 Y129.092 E7.79535
G1 X60.222 Y128.523 E7.81499
G1 X59.936 Y127.167 E7.86108
G1 X59.854 Y126.592 E7.8804
G1 X59.76 Y125.631 E7.91251
G1 X59.74 Y124.622 E7.94608
G1 X59.814 Y123.242 E7.99204
G1 X59.886 Y122.621 E8.01284
G1 X60.042 Y121.67 E8.04489
G1 X60.201 Y121.01 E8.06747
G1 X60.352 Y120.461 E8.08641
G1 X60.819 Y119.112 E8.13389
G1 X60.997 Y118.689 E8.14915
G1 X61.539 Y117.58 E8.19021
G1 X61.819 Y117.082 E8.20921
G1 X62.596 Y115.889 E8.25656
G1 X62.955 Y115.412 E8.27642
G1 X63.849 Y114.369 E8.32211
G1 X64.222 Y113.986 E8.33989
G1 X65.295 Y113.02 E8.38791
G1 X65.786 Y112.634 E8.40868
G1 X66.566 Y112.075 E8.4406
G1 X67.049 Y111.779 E8.45944
G0 F6000 X67.249 Y112.125
G1 F1200 X67.692 Y111.869 E8.47646
G1 X68.776 Y111.325 E8.5168
G1 X69.323 Y111.09 E8.5366
G1 X70.611 Y110.634 E8.58204
G1 X71.161 Y110.48 E8.60104
G1 X72.467 Y110.201 E8.64546
G1 X73.01 Y110.121 E8.66371
G1 X73.744 Y110.04 E8.68828
G1 X74.752 Y109.964 E8.7219
G1 X77.325 Y109.733 E8.80782
G1 X79.844 Y109.434 E8.89219
G1 X82.345 Y109.067 E8.97626
G1 X84.859 Y108.623 E9.06117
G1 X87.289 Y108.125 E9.14368
G1 X89.765 Y107.541 E9.22829
G1 X92.195 Y106.897 E9.3119
G1 X94.665 Y106.167 E9.39757
G1 X97.058 Y105.384 E9.48131
G1 X99.403 Y104.544 E9.56416
G1 X102.288 Y103.408 E9.66728
G1 X103.36 Y102.971 E9.70579
G1 X104.3 Y102.639 E9.73894
G1 X104.753 Y102.503 E9.75468
G1 X105.616 Y102.284 E9.78429
G1 X106.025 Y102.199 E9.79818
G1 X106.899 Y102.056 E9.82764
G1 X107.363 Y102 E9.84318
G1 X108.429 Y101.926 E9.87872
G1 X109.934 Y101.9 E9.92879
G1 X125.306 Y101.9 E10.44006
G1 X126.295 Y101.913 E10.47296
G1 X127.003 Y101.944 E10.49653
G1 X127.765 Y102.014 E10.52198
G1 X128.232 Y102.074 E10.53764
G1 X128.996 Y102.202 E10.56341
G1 X129.417 Y102.289 E10.57771
G1 X130.513 Y102.577 E10.6154
G1 X130.925 Y102.71 E10.6298
G1 X131.612 Y102.958 E10.65409
G1 X131.997 Y103.112 E10.66788
G1 X132.788 Y103.469 E10.69674
G1 X133.237 Y103.696 E10.71348
G1 X134.018 Y104.133 E10.74324
G1 X134.345 Y104.335 E10.75603
G1 X135.078 Y104.832 E10.78548
G1 X135.51 Y105.152 E10.80336
G1 X136.261 Y105.765 E10.83561
G1 X136.524 Y106.001 E10.84736
G1 X137.052 Y106.511 E10.87178
G1 X137.368 Y106.837 E10.88688
G1 X137.997 Y107.549 E10.91848
G1 X140.121 Y110.188 E11.03115
G1 X141.734 Y112.078 E11.11379
G1 X143.453 Y113.981 E11.19908
G1 X145.192 Y115.798 E11.28273
G1 X146.98 Y117.564 E11.36632
G1 X148.849 Y119.31 E11.45139
G1 X150.719 Y120.958 E11.53429
G1 X152.698 Y122.607 E11.61997
G1 X154.656 Y124.147 E11.70282
G1 X156.75 Y125.698 E11.78949
G1 X157.699 Y126.379 E11.82834
G1 X158.122 Y126.698 E11.84596
G1 X158.531 Y127.025 E11.86338
G1 X159.234 Y127.64 E11.89445
G1 X159.87 Y128.289 E11.92467
G1 X160.609 Y129.151 E11.96243
G1 X160.963 Y129.612 E11.98177
G1 X161.499 Y130.378 E12.01286
G1 X161.822 Y130.921 E12.03387
G1 X162.071 Y131.371 E12.05098
G1 X162.594 Y132.461 E12.09119
G1 X162.818 Y133.008 E12.11085
G1 X163.122 Y133.858 E12.14088
G1 X163.276 Y134.402 E12.15968
G1 X163.39 Y134.854 E12.17518
G1 X163.603 Y135.947 E12.21222
G1 X163.683 Y136.524 E12.2316
G1 X163.77 Y137.45 E12.26253
G1 X163.783 Y137.949 E12.27913
G1 X163.784 Y138.47 E12.29646
G1 X163.7 Y139.82 E12.34145
G1 X163.63 Y140.367 E12.35979
G1 X163.473 Y141.285 E12.39077
G1 X163.349 Y141.789 E12.40803
G1 X163.199 Y142.342 E12.42709
G1 X162.916 Y143.229 E12.45806
G1 X162.714 Y143.736 E12.47621
G1 X162.524 Y144.179 E12.49224
G1 X161.978 Y145.273 E12.53291
G1 X161.715 Y145.731 E12.55047
G1 X160.999 Y146.813 E12.59363
G1 X160.67 Y147.247 E12.61174
G1 X159.888 Y148.162 E12.65177
G1 X159.5 Y148.565 E12.67038
G1 X158.551 Y149.435 E12.7132
G1 X158.131 Y149.774 E12.73115
G1 X157.379 Y150.326 E12.76218
G1 X156.861 Y150.651 E12.78252
G1 X156.364 Y150.942 E12.80167
G1 X155.232 Y151.515 E12.84387
G1 X154.702 Y151.743 E12.86306
G1 X153.421 Y152.197 E12.90826
G1 X152.914 Y152.34 E12.92579
G1 X151.708 Y152.604 E12.96685
G1 X151.153 Y152.691 E12.98553
G1 X150.255 Y152.791 E13.01558
G1 X149.707 Y152.814 E13.03383
G1 X149.186 Y152.822 E13.05116
G1 X148.024 Y152.774 E13.08984
G1 X147.685 Y152.741 E13.10117
G1 X147.064 Y152.661 E13.12199
G1 X145.639 Y152.432 E13.17
G1 X74.353 Y139.597 E15.5791
G1 X72.256 Y139.243 E15.64984
G1 X71.269 Y139.026 E15.68345
G1 X70.804 Y138.899 E15.69948
G1 X69.665 Y138.518 E15.73943
G1 X69.133 Y138.305 E15.75849
G1 X67.924 Y137.728 E15.80304
G1 X67.428 Y137.451 E15.82194
G1 X66.301 Y136.72 E15.86662
G1 X65.79 Y136.339 E15.88782
G1 X65.091 Y135.768 E15.91784
G1 X64.646 Y135.348 E15.93819
G1 X64.289 Y134.99 E15.955
G1 X63.479 Y134.078 E15.99557
G1 X63.15 Y133.661 E16.01324
G1 X62.61 Y132.91 E16.04401
G1 X62.199 Y132.253 E16.06978
G1 X62.006 Y131.919 E16.08261
G1 X61.446 Y130.802 E16.12417
G1 X61.228 Y130.294 E16.14256
G1 X60.765 Y128.984 E16.18877
G1 X60.613 Y128.44 E16.20755
G1 X60.332 Y127.11 E16.25277
G1 X60.252 Y126.553 E16.27148
G1 X60.16 Y125.623 E16.30257
G1 X60.14 Y124.614 E16.33613
G1 X60.211 Y123.288 E16.3803
G1 X60.281 Y122.685 E16.40049
G1 X60.431 Y121.764 E16.43153
G1 X60.587 Y121.116 E16.45369
G1 X60.738 Y120.567 E16.47263
G1 X61.188 Y119.267 E16.51839
G1 X61.366 Y118.844 E16.53365
G1 X61.888 Y117.776 E16.57319
G1 X62.168 Y117.278 E16.59219
G1 X62.916 Y116.129 E16.63779
G1 X63.259 Y115.672 E16.6568
G1 X64.136 Y114.648 E16.70164
G1 X64.509 Y114.265 E16.71942
G1 X65.543 Y113.334 E16.7657
G1 X66.019 Y112.959 E16.78585
G1 X66.776 Y112.416 E16.81684
G1 X67.249 Y112.125 E16.83531
G0 F6000 X67.45 Y112.471
G1 F1200 X67.871 Y112.227 E16.85149
G1 X68.955 Y111.683 E16.89183
G1 X69.457 Y111.467 E16.91001
G1 X70.72 Y111.019 E16.95458
G1 X71.245 Y110.871 E16.97272
G1 X72.525 Y110.597 E17.01626
G1 X73.054 Y110.519 E17.03404
G1 X73.774 Y110.439 E17.05814
G1 X74.782 Y110.363 E17.09176
G1 X77.372 Y110.13 E17.17825
G1 X79.902 Y109.83 E17.26299
G1 X82.407 Y109.462 E17.3472
G1 X84.929 Y109.017 E17.43238
G1 X87.369 Y108.517 E17.51522
G1 X89.867 Y107.928 E17.60058
G1 X92.305 Y107.282 E17.68447
G1 X94.778 Y106.551 E17.77024
G1 X97.193 Y105.761 E17.85475
G1 X99.538 Y104.921 E17.9376
G1 X102.435 Y103.78 E18.04116
G1 X103.493 Y103.348 E18.07917
G1 X104.415 Y103.022 E18.11169
G1 X104.851 Y102.891 E18.12683
G1 X105.698 Y102.676 E18.1559
G1 X106.09 Y102.594 E18.16922
G1 X106.947 Y102.453 E18.19811
G1 X107.391 Y102.399 E18.21298
G1 X108.436 Y102.326 E18.24782
G1 X109.941 Y102.3 E18.29789
G1 X125.301 Y102.3 E18.80876
G1 X126.278 Y102.313 E18.84126
G1 X126.986 Y102.344 E18.86483
G1 X127.714 Y102.411 E18.88915
G1 X128.166 Y102.469 E18.90431
G1 X128.916 Y102.594 E18.92959
G1 X129.316 Y102.676 E18.94318
G1 X130.391 Y102.958 E18.98014
G1 X130.789 Y103.086 E18.99405
G1 X131.463 Y103.329 E19.01787
G1 X131.832 Y103.477 E19.0311
G1 X132.623 Y103.834 E19.05996
G1 X133.042 Y104.045 E19.07557
G1 X133.808 Y104.473 E19.10475
G1 X134.121 Y104.666 E19.11698
G1 X134.84 Y105.153 E19.14586
G1 X135.257 Y105.462 E19.16313
G1 X135.994 Y106.063 E19.19476
G1 X136.246 Y106.289 E19.20601
G1 X136.765 Y106.789 E19.22998
G1 X137.068 Y107.102 E19.24447
G1 X137.685 Y107.8 E19.27546
G1 X139.809 Y110.439 E19.38813
G1 X141.437 Y112.346 E19.47153
G1 X143.164 Y114.258 E19.55722
G1 X144.911 Y116.083 E19.64125
G1 X146.699 Y117.849 E19.72483
G1 X148.585 Y119.61 E19.81066
G1 X150.463 Y121.265 E19.89391
G1 X152.442 Y122.914 E19.97959
G1 X154.418 Y124.468 E20.0632
G1 X156.517 Y126.023 E20.15009
G1 X157.458 Y126.698 E20.1886
G1 X157.873 Y127.011 E20.20589
G1 X158.268 Y127.326 E20.2227
G1 X158.948 Y127.92 E20.25273
G1 X159.584 Y128.569 E20.28295
G1 X160.292 Y129.395 E20.31913
G1 X160.636 Y129.842 E20.33789
G1 X161.155 Y130.582 E20.36796
G1 X161.472 Y131.115 E20.38858
G1 X161.71 Y131.544 E20.4049
G1 X162.233 Y132.634 E20.44511
G1 X162.441 Y133.143 E20.4634
G1 X162.745 Y133.993 E20.49342
G1 X162.888 Y134.5 E20.51094
G1 X162.997 Y134.931 E20.52573
G1 X163.21 Y136.024 E20.56277
G1 X163.285 Y136.562 E20.58083
G1 X163.37 Y137.461 E20.61087
G1 X163.383 Y137.95 E20.62714
G1 X163.384 Y138.471 E20.64447
G1 X163.303 Y139.77 E20.68776
G1 X163.236 Y140.3 E20.70552
G1 X163.084 Y141.19 E20.73555
G1 X162.963 Y141.685 E20.7525
G1 X162.818 Y142.221 E20.77097
G1 X162.544 Y143.081 E20.80099
G1 X162.346 Y143.578 E20.81878
G1 X162.156 Y144.021 E20.83482
G1 X161.631 Y145.074 E20.87395
G1 X161.381 Y145.51 E20.89067
G1 X160.665 Y146.592 E20.93382
G1 X160.366 Y146.987 E20.9503
G1 X159.584 Y147.902 E20.99033
G1 X159.23 Y148.27 E21.00732
G1 X158.281 Y149.14 E21.05014
G1 X157.894 Y149.452 E21.06667
G1 X157.166 Y149.987 E21.09672
G1 X156.658 Y150.306 E21.11667
G1 X156.183 Y150.585 E21.13499
G1 X155.051 Y151.158 E21.17719
G1 X154.568 Y151.366 E21.19468
G1 X153.312 Y151.812 E21.23901
G1 X152.828 Y151.949 E21.25574
G1 X151.622 Y152.213 E21.2968
G1 X151.109 Y152.293 E21.31407
G1 X150.211 Y152.393 E21.34412
G1 X149.701 Y152.414 E21.3611
G1 X149.203 Y152.422 E21.37767
G1 X148.041 Y152.374 E21.41635
G1 X147.736 Y152.344 E21.42654
G1 X147.128 Y152.266 E21.44693
G1 X145.71 Y152.038 E21.4947
G1 X74.424 Y139.204 E23.9038
G1 X72.342 Y138.852 E23.97403
G1 X71.374 Y138.64 E24.00699
G1 X70.931 Y138.52 E24.02225
G1 X69.813 Y138.147 E24.06145
G1 X69.305 Y137.944 E24.07965
G1 X68.119 Y137.379 E24.12334
G1 X67.646 Y137.115 E24.14136
G1 X66.519 Y136.384 E24.18604
G1 X66.043 Y136.029 E24.20579
G1 X65.344 Y135.458 E24.23581
G1 X64.929 Y135.065 E24.25482
G1 X64.588 Y134.724 E24.27086
G1 X63.793 Y133.83 E24.31065
G1 X63.475 Y133.427 E24.32772
G1 X62.935 Y132.676 E24.35849
G1 X62.545 Y132.052 E24.38296
G1 X62.364 Y131.74 E24.39496
G1 X61.814 Y130.644 E24.43574
G1 X61.596 Y130.136 E24.45413
G1 X61.15 Y128.876 E24.49859
G1 X61.004 Y128.357 E24.51652
G1 X60.728 Y127.053 E24.56085
G1 X60.65 Y126.513 E24.579
G1 X60.56 Y125.615 E24.60901
G1 X60.54 Y124.606 E24.64258
G1 X60.608 Y123.334 E24.68495
G1 X60.676 Y122.749 E24.70454
G1 X60.82 Y121.858 E24.73456
G1 X60.973 Y121.222 E24.75631
G1 X61.124 Y120.673 E24.77525
G1 X61.557 Y119.422 E24.81928
G1 X61.735 Y118.999 E24.83454
G1 X62.237 Y117.971 E24.87259
G1 X62.503 Y117.496 E24.8907
G1 X63.236 Y116.369 E24.93542
G1 X63.563 Y115.932 E24.95357
G1 X64.423 Y114.927 E24.99756
G1 X64.796 Y114.544 E25.01535
G1 X65.791 Y113.648 E25.05988
G1 X66.253 Y113.284 E25.07944
G1 X66.986 Y112.757 E25.10947
G1 X67.45 Y112.471 E25.1276
G1 F2700 E20.1276
G1 F300 Z0.4
G0 F6000 X124.577 Y116.243 Z0.4
G1 F300 Z0.2
G1 F2700 E25.1276
G1 F1200 X124.745 Y116.076 E25.13548
G1 X124.921 Y115.938 E25.14292
G1 X125.12 Y115.817 E25.15066
G1 X125.327 Y115.724 E25.15821
G1 X125.543 Y115.657 E25.16573
G1 X125.771 Y115.615 E25.17344
G1 X126 Y115.601 E25.18107
G1 X126.231 Y115.615 E25.18877
G1 X126.458 Y115.657 E25.19645
G1 X126.674 Y115.724 E25.20397
G1 X126.881 Y115.817 E25.21152
G1 X127.08 Y115.938 E25.21926
G1 X127.256 Y116.076 E25.2267
G1 X127.424 Y116.243 E25.23458
G1 X127.566 Y116.425 E25.24226
G1 X127.681 Y116.615 E25.24965
G1 X127.774 Y116.823 E25.25723
G1 X127.843 Y117.042 E25.26486
G1 X127.886 Y117.277 E25.27281
G1 X127.899 Y117.499 E25.2802
G1 X127.886 Y117.723 E25.28767
G1 X127.843 Y117.958 E25.29561
G1 X127.774 Y118.177 E25.30325
G1 X127.681 Y118.385 E25.31083
G1 X127.566 Y118.575 E25.31821
G1 X127.424 Y118.757 E25.32589
G1 X127.256 Y118.924 E25.33377
G1 X127.08 Y119.062 E25.34121
G1 X126.881 Y119.183 E25.34896
G1 X126.674 Y119.276 E25.3565
