;FLAVOR:Marlin
;TIME:13153
;Filament used: 9.45088m
;Layer height: 0.2
;MINX:32
;MINY:71.5
;MINZ:0.2
;MAXX:203
;MAXY:163.5
;MAXZ:26
;TARGET_MACHINE.NAME:Creality Ender-3
;Generated with Cura_SteamEngine 5.6.0
M140 S50
M105
M190 S50
M104 S200
M105
M109 S200
M82 ;absolute extrusion mode
; Ender 3 Custom Start G-code
G92 E0 ; Reset Extruder
G28 ; Home all axes
G1 Z2.0 F3000 ; Move Z Axis up little to prevent scratching of Heat Bed
G1 X0.1 Y20 Z0.3 F5000.0 ; Move to start position
G1 X0.1 Y200.0 Z0.3 F1500.0 E15 ; Draw the first line
G1 X0.4 Y200.0 Z0.3 F5000.0 ; Move to side a little
G1 X0.4 Y20 Z0.3 F1500.0 E30 ; Draw the second line
G92 E0 ; Reset Extruder
G1 Z2.0 F3000 ; Move Z Axis up little to prevent scratching of Heat Bed
G1 X5 Y20 Z0.3 F5000.0 ; Move over to prevent blob squish
G92 E0
G92 E0
G1 F2700 E-5
;LAYER_COUNT:130
;LAYER:0
M107
G1 F300 Z0.4
G0 F6000 X38.694 Y82.392 Z0.4
;TYPE:SKIRT
G1 F300 Z0.2
G1 F2700 E0
G1 F1200 X39.607 Y82.05 E0.03243
G1 X40.545 Y81.79 E0.0648
G1 X41.511 Y81.612 E0.09747
G1 X42.656 Y81.515 E0.13569
G1 X43.331 Y81.5 E0.15815
G1 X121.013 Y81.497 E2.74186
G1 X123.598 Y81.46 E2.82785
G1 X126.163 Y81.351 E2.91324
G1 X128.618 Y81.177 E2.99509
G1 X131.124 Y80.928 E3.07886
G1 X133.665 Y80.603 E3.16406
G1 X136.154 Y80.213 E3.24785
G1 X138.586 Y79.761 E3.33013
G1 X141.056 Y79.228 E3.41417
G1 X143.486 Y78.633 E3.49738
G1 X145.962 Y77.953 E3.58278
G1 X148.332 Y77.226 E3.66523
G1 X150.745 Y76.412 E3.74993
G1 X153.102 Y75.541 E3.83351
G1 X155.412 Y74.613 E3.91631
G1 X157.726 Y73.606 E4.00024
G1 X158.966 Y73.021 E4.04584
G1 X160.122 Y72.491 E4.08814
G1 X160.959 Y72.151 E4.11819
G1 X161.959 Y71.846 E4.15296
G1 X162.913 Y71.647 E4.18538
G1 X163.875 Y71.533 E4.2176
G1 X164.679 Y71.503 E4.24436
G1 X191.302 Y71.5 E5.12984
G1 X192.184 Y71.513 E5.15918
G1 X193.155 Y71.572 E5.19153
G1 X194.119 Y71.718 E5.22396
G1 X195.066 Y71.949 E5.25638
G1 X195.922 Y72.237 E5.28642
G1 X196.878 Y72.656 E5.32114
G1 X197.731 Y73.127 E5.35355
G1 X198.538 Y73.672 E5.38594
G1 X199.295 Y74.286 E5.41835
G1 X199.993 Y74.964 E5.45072
G1 X200.629 Y75.701 E5.4831
G1 X201.198 Y76.491 E5.51548
G1 X201.661 Y77.267 E5.54553
G1 X202.113 Y78.208 E5.58025
G1 X202.454 Y79.12 E5.61264
G1 X202.713 Y80.059 E5.64504
G1 X202.89 Y81.025 E5.6777
G1 X202.985 Y82.155 E5.71542
G1 X203 Y82.83 E5.73787
G1 X202.999 Y97.45 E6.22414
G1 X202.988 Y98.172 E6.24815
G1 X202.928 Y99.157 E6.28098
G1 X202.804 Y100.008 E6.30958
G1 X202.584 Y101.193 E6.34967
G1 X202.151 Y103.719 E6.43491
G1 X201.79 Y106.265 E6.52043
G1 X201.515 Y108.683 E6.60137
G1 X201.296 Y111.248 E6.687
G1 X201.156 Y113.743 E6.77011
G1 X201.084 Y116.276 E6.85439
G1 X201.084 Y118.788 E6.93794
G1 X201.156 Y121.299 E7.02149
G1 X201.299 Y123.814 E7.10528
G1 X201.51 Y126.316 E7.18879
G1 X201.794 Y128.812 E7.27234
G1 X202.149 Y131.306 E7.35613
G1 X202.581 Y133.821 E7.441
G1 X202.799 Y134.961 E7.47961
G1 X202.93 Y135.854 E7.50963
G1 X202.985 Y136.679 E7.53713
G1 X203 Y137.336 E7.55899
G1 X202.999 Y151.916 E8.04392
G1 X202.987 Y152.677 E8.06923
G1 X202.929 Y153.65 E8.10165
G1 X202.783 Y154.613 E8.13405
G1 X202.552 Y155.56 E8.16647
G1 X202.239 Y156.482 E8.19885
G1 X201.847 Y157.373 E8.23123
G1 X201.395 Y158.195 E8.26243
G1 X200.833 Y159.033 E8.29599
G1 X200.243 Y159.763 E8.32721
G1 X199.54 Y160.489 E8.36082
G1 X198.804 Y161.125 E8.39317
G1 X198.014 Y161.695 E8.42557
G1 X197.238 Y162.158 E8.45563
G1 X196.298 Y162.611 E8.49033
G1 X195.385 Y162.953 E8.52276
G1 X194.447 Y163.212 E8.55513
G1 X193.481 Y163.389 E8.58779
G1 X192.345 Y163.485 E8.62571
G1 X191.67 Y163.5 E8.64817
G1 X165.148 Y163.498 E9.53029
G1 X164.401 Y163.483 E9.55514
G1 X163.429 Y163.419 E9.58754
G1 X162.466 Y163.269 E9.61996
G1 X161.522 Y163.036 E9.6523
G1 X160.638 Y162.734 E9.68337
G1 X159.97 Y162.447 E9.70755
G1 X158.888 Y161.942 E9.74726
G1 X156.544 Y160.883 E9.83281
G1 X154.167 Y159.89 E9.91849
G1 X151.873 Y159.006 E10.00026
G1 X149.496 Y158.167 E10.0841
G1 X147.087 Y157.393 E10.16826
G1 X144.672 Y156.691 E10.2519
G1 X142.269 Y156.066 E10.33449
G1 X139.754 Y155.488 E10.42032
G1 X137.324 Y155 E10.50275
G1 X134.853 Y154.578 E10.58613
G1 X132.341 Y154.22 E10.67052
G1 X129.852 Y153.938 E10.75384
G1 X127.341 Y153.722 E10.83766
G1 X124.889 Y153.585 E10.91934
G1 X120.922 Y153.501 E11.05131
G1 X43.694 Y153.5 E13.61993
G1 X42.785 Y153.484 E13.65017
G1 X41.811 Y153.422 E13.68263
G1 X40.85 Y153.274 E13.71497
G1 X39.904 Y153.041 E13.74737
G1 X39.049 Y152.75 E13.77741
G1 X38.092 Y152.328 E13.8122
G1 X37.243 Y151.855 E13.84452
G1 X36.465 Y151.33 E13.87574
G1 X35.681 Y150.691 E13.90938
G1 X34.985 Y150.011 E13.94174
G1 X34.351 Y149.273 E13.9741
G1 X33.823 Y148.54 E14.00415
G1 X33.291 Y147.64 E14.03892
G1 X32.873 Y146.76 E14.07133
G1 X32.535 Y145.848 E14.10367
G1 X32.278 Y144.907 E14.13612
G1 X32.106 Y143.941 E14.16875
G1 X32.013 Y142.783 E14.20739
G1 X32 Y142.158 E14.22818
G1 X32.001 Y93.054 E15.86139
G1 X32.012 Y92.33 E15.88547
G1 X32.07 Y91.357 E15.91789
G1 X32.215 Y90.394 E15.95028
G1 X32.435 Y89.481 E15.98152
G1 X32.756 Y88.525 E16.01506
G1 X33.149 Y87.634 E16.04745
G1 X33.6 Y86.812 E16.07863
G1 X34.161 Y85.973 E16.1122
G1 X34.727 Y85.269 E16.14225
G1 X35.453 Y84.516 E16.17704
G1 X36.19 Y83.879 E16.20944
G1 X36.979 Y83.311 E16.24177
G1 X37.816 Y82.813 E16.27417
G1 X38.694 Y82.392 E16.30655
G0 F6000 X38.835 Y82.766
G1 F1200 X39.714 Y82.435 E16.33779
G1 X40.618 Y82.183 E16.369
G1 X41.545 Y82.011 E16.40036
G1 X42.69 Y81.914 E16.43858
G1 X43.331 Y81.9 E16.45991
G1 X121.019 Y81.897 E19.04382
G1 X123.615 Y81.86 E19.13017
G1 X126.18 Y81.751 E19.21556
G1 X128.653 Y81.576 E19.29802
G1 X131.175 Y81.325 E19.38232
G1 X133.716 Y81 E19.46752
G1 X136.216 Y80.608 E19.55169
G1 X138.671 Y80.152 E19.63474
G1 X141.151 Y79.617 E19.71912
G1 X143.581 Y79.022 E19.80233
G1 X146.068 Y78.338 E19.88812
G1 X148.46 Y77.605 E19.97133
G1 X150.873 Y76.791 E20.05603
G1 X153.241 Y75.916 E20.13999
G1 X155.572 Y74.98 E20.22354
G1 X157.886 Y73.973 E20.30747
G1 X159.133 Y73.385 E20.35333
G1 X160.273 Y72.862 E20.39505
G1 X161.11 Y72.522 E20.42509
G1 X162.041 Y72.237 E20.45748
G1 X162.96 Y72.044 E20.48871
G1 X163.89 Y71.933 E20.51986
G1 X164.679 Y71.903 E20.54612
G1 X191.296 Y71.9 E21.43141
G1 X192.16 Y71.912 E21.46015
G1 X193.096 Y71.968 E21.49133
G1 X194.025 Y72.107 E21.52258
G1 X194.938 Y72.328 E21.55382
G1 X195.794 Y72.616 E21.58386
G1 X196.685 Y73.006 E21.61621
G1 X197.508 Y73.459 E21.64745
G1 X198.287 Y73.983 E21.67868
G1 X199.017 Y74.573 E21.7099
G1 X199.691 Y75.226 E21.74111
G1 X200.305 Y75.935 E21.77231
G1 X200.854 Y76.696 E21.80352
G1 X201.317 Y77.472 E21.83357
G1 X201.739 Y78.349 E21.86594
G1 X202.069 Y79.227 E21.89714
G1 X202.32 Y80.132 E21.92838
G1 X202.491 Y81.059 E21.95973
G1 X202.586 Y82.189 E21.99744
G1 X202.6 Y82.83 E22.01877
G1 X202.599 Y97.444 E22.50483
G1 X202.589 Y98.148 E22.52825
G1 X202.532 Y99.1 E22.55997
G1 X202.411 Y99.935 E22.58803
G1 X202.191 Y101.12 E22.62812
G1 X201.757 Y103.651 E22.71353
G1 X201.394 Y106.209 E22.79946
G1 X201.116 Y108.649 E22.88114
G1 X200.898 Y111.214 E22.96676
G1 X200.756 Y113.732 E23.05064
G1 X200.684 Y116.265 E23.13493
G1 X200.684 Y118.788 E23.21884
G1 X200.756 Y121.31 E23.30276
G1 X200.9 Y123.848 E23.38731
G1 X201.112 Y126.35 E23.47082
G1 X201.398 Y128.868 E23.55511
G1 X201.755 Y131.374 E23.6393
G1 X202.188 Y133.896 E23.72441
G1 X202.403 Y135.019 E23.76244
G1 X202.534 Y135.912 E23.79246
G1 X202.585 Y136.688 E23.81832
G1 X202.6 Y137.336 E23.83988
G1 X202.599 Y151.91 E24.32462
G1 X202.588 Y152.654 E24.34936
G1 X202.533 Y153.591 E24.38058
G1 X202.394 Y154.519 E24.41179
G1 X202.173 Y155.432 E24.44304
G1 X201.873 Y156.321 E24.47424
G1 X201.496 Y157.18 E24.50544
G1 X201.044 Y158.002 E24.53664
G1 X200.521 Y158.782 E24.56788
G1 X199.955 Y159.485 E24.5979
G1 X199.278 Y160.187 E24.63033
G1 X198.57 Y160.801 E24.6615
G1 X197.809 Y161.351 E24.69273
G1 X197.033 Y161.814 E24.72279
G1 X196.157 Y162.237 E24.75514
G1 X195.278 Y162.568 E24.78638
G1 X194.374 Y162.819 E24.81759
G1 X193.447 Y162.99 E24.84894
G1 X192.311 Y163.086 E24.88686
G1 X191.67 Y163.1 E24.90818
G1 X165.156 Y163.098 E25.79004
G1 X164.427 Y163.084 E25.81429
G1 X163.49 Y163.024 E25.84552
G1 X162.562 Y162.881 E25.87675
G1 X161.651 Y162.657 E25.90795
G1 X160.767 Y162.355 E25.93902
G1 X160.139 Y162.085 E25.96176
G1 X159.053 Y161.577 E26.00164
G1 X156.709 Y160.518 E26.08719
G1 X154.321 Y159.521 E26.17326
G1 X152.017 Y158.633 E26.25538
G1 X149.618 Y157.786 E26.34
G1 X147.209 Y157.012 E26.42416
G1 X144.779 Y156.306 E26.50832
G1 X142.359 Y155.676 E26.59149
G1 X139.844 Y155.098 E26.67732
G1 X137.403 Y154.608 E26.76013
G1 X134.909 Y154.182 E26.84428
G1 X132.397 Y153.824 E26.92868
G1 X129.886 Y153.539 E27.01273
G1 X127.375 Y153.324 E27.09655
G1 X124.897 Y153.185 E27.1791
G1 X120.93 Y153.101 E27.31107
G1 X43.701 Y153.1 E29.87972
G1 X42.81 Y153.085 E29.90936
G1 X41.872 Y153.027 E29.94062
G1 X40.945 Y152.885 E29.97181
G1 X40.033 Y152.662 E30.00304
G1 X39.178 Y152.371 E30.03307
G1 X38.286 Y151.978 E30.06549
G1 X37.467 Y151.523 E30.09666
G1 X36.689 Y150.998 E30.12787
G1 X35.96 Y150.405 E30.15913
G1 X35.288 Y149.75 E30.19034
G1 X34.676 Y149.039 E30.22154
G1 X34.148 Y148.306 E30.25159
G1 X33.652 Y147.468 E30.28398
G1 X33.248 Y146.621 E30.31519
G1 X32.921 Y145.742 E30.34638
G1 X32.672 Y144.836 E30.37763
G1 X32.505 Y143.909 E30.40896
G1 X32.413 Y142.775 E30.4468
G1 X32.4 Y142.158 E30.46733
G1 X32.401 Y93.06 E32.10033
G1 X32.411 Y92.353 E32.12385
G1 X32.466 Y91.416 E32.15507
G1 X32.604 Y90.488 E32.18627
G1 X32.824 Y89.575 E32.21751
G1 X33.122 Y88.686 E32.2487
G1 X33.5 Y87.826 E32.27994
G1 X33.951 Y87.004 E32.31112
G1 X34.473 Y86.224 E32.34234
G1 X35.039 Y85.52 E32.37239
G1 X35.715 Y84.818 E32.4048
G1 X36.424 Y84.203 E32.43602
G1 X37.184 Y83.654 E32.4672
G1 X37.99 Y83.173 E32.49842
G1 X38.835 Y82.766 E32.52961
G0 F6000 X38.977 Y83.14
G1 F1200 X39.822 Y82.82 E32.55967
G1 X40.692 Y82.576 E32.58972
G1 X41.579 Y82.41 E32.61973
G1 X42.724 Y82.313 E32.65795
G1 X43.331 Y82.3 E32.67814
G1 X121.025 Y82.297 E35.26226
G1 X123.632 Y82.26 E35.34898
G1 X126.197 Y82.151 E35.43436
G1 X128.688 Y81.975 E35.51742
G1 X131.226 Y81.722 E35.60226
G1 X133.767 Y81.397 E35.68746
G1 X136.278 Y81.003 E35.772
G1 X138.756 Y80.543 E35.85582
G1 X141.246 Y80.006 E35.94054
G1 X143.676 Y79.411 E36.02375
G1 X146.174 Y78.723 E36.10993
G1 X148.588 Y77.984 E36.1939
G1 X151.001 Y77.17 E36.2786
G1 X153.38 Y76.291 E36.36295
G1 X155.732 Y75.347 E36.44725
G1 X158.046 Y74.34 E36.53118
G1 X159.3 Y73.749 E36.57729
G1 X160.424 Y73.233 E36.61843
G1 X161.261 Y72.893 E36.64847
G1 X162.124 Y72.628 E36.6785
G1 X163.008 Y72.441 E36.70855
G1 X163.905 Y72.333 E36.7386
G1 X164.679 Y72.303 E36.76437
G1 X191.291 Y72.3 E37.64948
G1 X192.137 Y72.311 E37.67763
G1 X193.038 Y72.364 E37.70764
G1 X193.932 Y72.496 E37.7377
G1 X194.81 Y72.707 E37.76774
G1 X195.666 Y72.995 E37.79777
G1 X196.493 Y73.357 E37.8278
G1 X197.285 Y73.791 E37.85784
G1 X198.036 Y74.294 E37.8879
G1 X198.739 Y74.861 E37.91794
G1 X199.389 Y75.488 E37.94798
G1 X199.981 Y76.17 E37.97802
G1 X200.51 Y76.901 E38.00803
G1 X200.973 Y77.677 E38.03808
G1 X201.365 Y78.49 E38.0681
G1 X201.684 Y79.335 E38.09814
G1 X201.927 Y80.205 E38.12819
G1 X202.092 Y81.093 E38.15823
G1 X202.187 Y82.223 E38.19594
G1 X202.2 Y82.83 E38.21614
G1 X202.199 Y97.438 E38.702
G1 X202.189 Y98.142 E38.72542
G1 X202.136 Y99.043 E38.75544
G1 X202.018 Y99.862 E38.78296
G1 X201.798 Y101.047 E38.82305
G1 X201.363 Y103.583 E38.90863
G1 X200.998 Y106.153 E38.99496
G1 X200.717 Y108.615 E39.07738
G1 X200.5 Y111.18 E39.163
G1 X200.356 Y113.721 E39.24765
G1 X200.284 Y116.254 E39.33193
G1 X200.284 Y118.788 E39.41621
G1 X200.356 Y121.321 E39.50049
G1 X200.501 Y123.882 E39.58581
G1 X200.714 Y126.384 E39.66932
G1 X201.002 Y128.924 E39.75435
G1 X201.361 Y131.442 E39.83894
G1 X201.795 Y133.971 E39.92429
G1 X202.007 Y135.077 E39.96174
G1 X202.138 Y135.97 E39.99176
G1 X202.185 Y136.697 E40.01599
G1 X202.2 Y137.336 E40.03725
G1 X202.199 Y151.904 E40.52179
G1 X202.189 Y152.631 E40.54597
G1 X202.137 Y153.533 E40.57602
G1 X202.005 Y154.426 E40.60604
G1 X201.794 Y155.305 E40.63611
G1 X201.507 Y156.161 E40.66614
G1 X201.145 Y156.988 E40.69616
G1 X200.711 Y157.78 E40.7262
G1 X200.209 Y158.531 E40.75624
G1 X199.643 Y159.234 E40.78626
G1 X199.016 Y159.885 E40.81633
G1 X198.335 Y160.477 E40.84634
G1 X197.604 Y161.007 E40.87637
G1 X196.828 Y161.47 E40.90642
G1 X196.015 Y161.863 E40.93646
G1 X195.17 Y162.183 E40.96651
G1 X194.301 Y162.426 E40.99652
G1 X193.413 Y162.591 E41.02656
G1 X192.277 Y162.687 E41.06448
G1 X191.67 Y162.7 E41.08467
G1 X165.163 Y162.698 E41.9663
G1 X164.452 Y162.685 E41.98995
G1 X163.55 Y162.629 E42.02001
G1 X162.657 Y162.493 E42.05005
G1 X161.78 Y162.278 E42.08009
G1 X160.925 Y161.987 E42.11013
G1 X160.309 Y161.723 E42.13242
G1 X159.218 Y161.212 E42.17249
G1 X156.874 Y160.153 E42.25804
G1 X154.475 Y159.152 E42.34449
G1 X152.161 Y158.26 E42.42698
G1 X149.74 Y157.405 E42.51238
G1 X147.331 Y156.631 E42.59653
G1 X144.887 Y155.921 E42.68118
G1 X142.449 Y155.286 E42.76498
G1 X139.934 Y154.708 E42.85081
G1 X137.482 Y154.216 E42.93398
G1 X134.965 Y153.786 E43.01891
G1 X132.453 Y153.428 E43.10331
G1 X129.92 Y153.14 E43.1881
G1 X127.409 Y152.926 E43.27192
G1 X124.905 Y152.785 E43.35533
G1 X120.938 Y152.701 E43.4873
G1 X43.707 Y152.7 E46.05602
G1 X42.834 Y152.686 E46.08506
G1 X41.932 Y152.631 E46.11511
G1 X41.039 Y152.496 E46.14515
G1 X40.162 Y152.283 E46.17517
G1 X39.307 Y151.992 E46.20521
G1 X38.48 Y151.628 E46.23526
G1 X37.69 Y151.191 E46.26529
G1 X36.941 Y150.687 E46.29532
G1 X36.239 Y150.118 E46.32537
G1 X35.591 Y149.489 E46.35541
G1 X35.001 Y148.805 E46.38545
G1 X34.473 Y148.072 E46.4155
G1 X34.013 Y147.295 E46.44553
G1 X33.623 Y146.481 E46.47555
G1 X33.307 Y145.635 E46.50559
G1 X33.066 Y144.764 E46.53565
G1 X32.904 Y143.876 E46.56567
G1 X32.813 Y142.766 E46.60271
G1 X32.8 Y142.158 E46.62294
G1 X32.801 Y93.065 E48.25578
G1 X32.81 Y92.376 E48.2787
G1 X32.862 Y91.474 E48.30875
G1 X32.993 Y90.581 E48.33877
G1 X33.203 Y89.702 E48.36882
G1 X33.489 Y88.846 E48.39884
G1 X33.851 Y88.018 E48.4289
G1 X34.284 Y87.226 E48.45892
G1 X34.785 Y86.475 E48.48895
G1 X35.351 Y85.771 E48.51899
G1 X35.977 Y85.12 E48.54903
G1 X36.659 Y84.527 E48.57909
G1 X37.39 Y83.997 E48.60912
G1 X38.164 Y83.533 E48.63913
G1 X38.977 Y83.14 E48.66917
G1 F2700 E43.66917
G1 F300 Z0.4
G0 F6000 X43.2 Y92.7 Z0.4
G1 F300 Z0.2
G1 F2700 E48.66917
G1 F1200 X154.207 Y92.696 E52.36128
G1 X154.236 Y92.694 E52.36224
G1 X154.784 Y92.614 E52.38066
G1 X154.81 Y92.608 E52.38155
G1 X155.279 Y92.474 E52.39777
G1 X155.301 Y92.467 E52.39854
G1 X155.827 Y92.248 E52.41749
G1 X155.837 Y92.243 E52.41786
G1 X157.209 Y91.581 E52.46853
G1 X157.214 Y91.579 E52.46871
G1 X158.398 Y90.965 E52.51307
G1 X158.405 Y90.961 E52.51334
G1 X159.562 Y90.3 E52.55766
G1 X159.572 Y90.294 E52.55805
G1 X160.121 Y89.937 E52.57983
G1 X160.13 Y89.931 E52.58019
G1 X160.433 Y89.711 E52.59264
G1 X160.439 Y89.706 E52.5929
G1 X160.893 Y89.347 E52.61215
G1 X160.902 Y89.339 E52.61255
G1 X161.191 Y89.081 E52.62544
G1 X161.2 Y89.073 E52.62584
G1 X161.466 Y88.805 E52.6384
G1 X161.481 Y88.788 E52.63915
G1 X161.977 Y88.158 E52.66582
G1 X161.983 Y88.15 E52.66615
G1 X162.727 Y87.106 E52.70879
G1 X162.734 Y87.096 E52.7092
G1 X163.513 Y85.852 E52.75802
G1 X163.518 Y85.843 E52.75836
G1 X164.181 Y84.655 E52.80361
G1 X164.191 Y84.633 E52.80441
G1 X164.425 Y84.058 E52.82506
G1 X164.432 Y84.038 E52.82576
G1 X164.814 Y82.7 E52.87204
G1 X191.8 Y82.7 E53.7696
G1 X191.8 Y97.8 E54.27183
G1 X174.575 Y97.801 E54.84474
G1 X174.562 Y97.801 E54.84517
G1 X174.15 Y97.828 E54.8589
G1 X174.127 Y97.831 E54.85967
G1 X173.765 Y97.897 E54.87191
G1 X173.74 Y97.903 E54.87277
G1 X173.336 Y98.032 E54.88687
G1 X173.298 Y98.049 E54.88826
G1 X172.858 Y98.298 E54.90507
G1 X172.827 Y98.32 E54.90634
G1 X172.548 Y98.56 E54.91858
G1 X172.524 Y98.585 E54.91973
G1 X172.255 Y98.911 E54.93379
G1 X172.232 Y98.944 E54.93512
G1 X171.979 Y99.419 E54.95302
G1 X171.961 Y99.467 E54.95473
G1 X171.842 Y99.968 E54.97186
G1 X171.837 Y100 E54.97293
G1 X171.801 Y100.52 E54.99027
G1 X171.801 Y100.534 E54.99074
G1 X171.804 Y134.468 E56.11938
G1 X171.804 Y134.477 E56.11968
