;FLAVOR:Marlin
;TIME:2399
;Filament used: 1.23452m
;Layer height: 0.2
;MINX:54.995
;MINY:99.602
;MINZ:0.2
;MAXX:177.61
;MAXY:136.199
;MAXZ:13.6
;TARGET_MACHINE.NAME:Creality Ender-3
;Generated with Cura_SteamEngine 5.6.0
M140 S50
M105
M190 S50
M104 S200
M105
M109 S200
M82 ;absolute extrusion mode
; Ender 3 Custom Start G-code
G92 E0 ; Reset Extruder
G28 ; Home all axes
G1 Z2.0 F3000 ; Move Z Axis up little to prevent scratching of Heat Bed
G1 X0.1 Y20 Z0.3 F5000.0 ; Move to start position
G1 X0.1 Y200.0 Z0.3 F1500.0 E15 ; Draw the first line
G1 X0.4 Y200.0 Z0.3 F5000.0 ; Move to side a little
G1 X0.4 Y20 Z0.3 F1500.0 E30 ; Draw the second line
G92 E0 ; Reset Extruder
G1 Z2.0 F3000 ; Move Z Axis up little to prevent scratching of Heat Bed
G1 X5 Y20 Z0.3 F5000.0 ; Move over to prevent blob squish
G92 E0
G92 E0
G1 F2700 E-5
;LAYER_COUNT:68
;LAYER:0
M107
G1 F300 Z0.4
G0 F6000 X63.311 Y101.378 Z0.4
;TYPE:SKIRT
G1 F300 Z0.2
G1 F2700 E0
G1 F1200 X64.113 Y100.959 E0.0301
G1 X64.69 Y100.69 E0.05127
G1 X65.59 Y100.321 E0.08362
G1 X66.521 Y100.033 E0.11604
G1 X67.472 Y99.827 E0.1484
G1 X67.891 Y99.758 E0.16252
G1 X68.848 Y99.643 E0.19458
G1 X69.524 Y99.613 E0.21709
G1 X70.637 Y99.602 E0.25411
G1 X71.395 Y99.615 E0.27932
G1 X72.367 Y99.675 E0.31171
G1 X73.26 Y99.808 E0.34174
G1 X74.128 Y100.011 E0.37139
G1 X75.044 Y100.265 E0.40301
G1 X77.571 Y100.926 E0.48988
G1 X80.017 Y101.492 E0.57339
G1 X82.543 Y102.002 E0.6591
G1 X84.949 Y102.417 E0.7403
G1 X87.487 Y102.783 E0.82559
G1 X89.955 Y103.066 E0.90821
G1 X92.472 Y103.285 E0.99225
G1 X94.955 Y103.427 E1.07497
G1 X97.532 Y103.503 E1.16071
G1 X100.147 Y103.507 E1.24769
G1 X100.831 Y103.5 E1.27044
G1 X145.46 Y103.496 E2.75481
G1 X148.045 Y103.459 E2.84079
G1 X150.601 Y103.351 E2.92588
G1 X153.096 Y103.173 E3.00908
G1 X155.578 Y102.927 E3.09203
G1 X158.204 Y102.593 E3.18008
G1 X159.251 Y102.513 E3.215
G1 X159.875 Y102.5 E3.23576
G1 X165.693 Y102.501 E3.42927
G1 X166.426 Y102.512 E3.45365
G1 X167.398 Y102.569 E3.48604
G1 X168.361 Y102.715 E3.51843
G1 X169.307 Y102.944 E3.55081
G1 X170.231 Y103.256 E3.58324
G1 X171.121 Y103.648 E3.61559
G1 X171.944 Y104.099 E3.6468
G1 X172.783 Y104.66 E3.68037
G1 X173.487 Y105.226 E3.71041
G1 X174.24 Y105.951 E3.74518
G1 X174.877 Y106.687 E3.77756
G1 X175.407 Y107.418 E3.80759
G1 X175.943 Y108.315 E3.84234
G1 X176.365 Y109.193 E3.87474
G1 X176.707 Y110.105 E3.90714
G1 X176.967 Y111.042 E3.93948
G1 X177.133 Y111.93 E3.96953
G1 X177.211 Y112.597 E3.99186
G1 X177.33 Y114.036 E4.03989
G1 X177.46 Y115.323 E4.08291
G1 X177.525 Y116.072 E4.10792
G1 X177.561 Y116.747 E4.1304
G1 X177.59 Y118.042 E4.17348
G1 X177.61 Y122.385 E4.31793
G1 X177.601 Y123.139 E4.34301
G1 X177.546 Y124.112 E4.37543
G1 X177.41 Y125.041 E4.40665
G1 X177.178 Y126.021 E4.44015
G1 X176.869 Y126.947 E4.47262
G1 X176.495 Y127.806 E4.50378
G1 X176.012 Y128.692 E4.53734
G1 X175.473 Y129.503 E4.56973
G1 X174.909 Y130.209 E4.59978
G1 X174.195 Y130.956 E4.63415
G1 X173.717 Y131.386 E4.65554
G1 X171.689 Y133.103 E4.74392
G1 X170.756 Y133.808 E4.78281
G1 X170.302 Y134.113 E4.801
G1 X169.501 Y134.601 E4.8322
G1 X168.605 Y135.045 E4.86546
G1 X168.016 Y135.283 E4.88659
G1 X167.504 Y135.473 E4.90475
G1 X166.576 Y135.768 E4.93714
G1 X165.631 Y135.98 E4.96935
G1 X164.697 Y136.11 E5.00072
G1 X163.562 Y136.189 E5.03856
G1 X162.627 Y136.199 E5.06966
G1 X161.892 Y136.187 E5.09411
G1 X160.853 Y136.12 E5.12874
G1 X160.518 Y136.082 E5.13995
G1 X159.653 Y135.946 E5.16907
G1 X157.36 Y135.493 E5.24681
G1 X154.853 Y135.067 E5.33139
G1 X152.334 Y134.711 E5.41601
G1 X149.841 Y134.431 E5.49945
G1 X147.335 Y134.219 E5.58309
G1 X144.89 Y134.085 E5.66454
G1 X141.037 Y134.005 E5.79271
G1 X101.046 Y133.999 E7.12282
G1 X100.296 Y133.986 E7.14777
G1 X99.116 Y133.901 E7.18712
G1 X97.762 Y133.726 E7.23253
G1 X95.205 Y133.438 E7.31811
G1 X92.707 Y133.223 E7.4015
G1 X90.19 Y133.082 E7.48535
G1 X87.631 Y133.009 E7.5705
G1 X86.332 Y133 E7.6137
G1 X82.762 Y133 E7.73244
G1 X80.178 Y133.037 E7.81839
G1 X77.61 Y133.146 E7.90388
G1 X75.14 Y133.321 E7.98624
G1 X72.65 Y133.568 E8.06947
G1 X69.983 Y133.907 E8.15888
G1 X68.931 Y133.987 E8.19397
G1 X68.175 Y133.999 E8.21912
G1 X67.33 Y133.987 E8.24723
G1 X66.357 Y133.93 E8.27965
G1 X65.395 Y133.785 E8.31201
G1 X64.448 Y133.556 E8.34441
G1 X63.526 Y133.246 E8.37676
G1 X62.698 Y132.885 E8.40681
G1 X61.781 Y132.385 E8.44155
G1 X61 Y131.863 E8.47279
G1 X60.215 Y131.23 E8.50633
G1 X59.564 Y130.605 E8.53635
G1 X58.876 Y129.815 E8.57119
G1 X58.308 Y129.026 E8.60352
G1 X57.809 Y128.189 E8.63593
G1 X57.391 Y127.324 E8.66789
G1 X57.186 Y126.807 E8.68639
G1 X56.205 Y124.154 E8.78046
G1 X55.73 Y122.92 E8.82444
G1 X55.423 Y121.996 E8.85683
G1 X55.198 Y121.047 E8.88927
G1 X55.066 Y120.154 E8.91929
G1 X55.008 Y119.294 E8.94796
G1 X54.995 Y118.67 E8.96872
G1 X54.996 Y116.508 E9.04063
G1 X55.009 Y115.788 E9.06458
G1 X55.071 Y114.817 E9.09694
G1 X55.218 Y113.854 E9.12934
G1 X55.43 Y112.977 E9.15935
G1 X55.733 Y112.066 E9.19128
G1 X56.64 Y109.699 E9.27559
G1 X57.172 Y108.235 E9.3274
G1 X57.554 Y107.319 E9.36041
G1 X58.008 Y106.458 E9.39278
G1 X58.536 Y105.639 E9.42519
G1 X59.133 Y104.871 E9.45754
G1 X59.746 Y104.208 E9.48758
G1 X60.398 Y103.612 E9.51696
G1 X61.716 Y102.495 E9.57442
G1 X62.459 Y101.921 E9.60565
G1 X63.311 Y101.378 E9.63925
G0 F6000 X63.496 Y101.733
G1 F1200 X64.298 Y101.314 E9.66935
G1 X64.842 Y101.06 E9.68931
G1 X65.709 Y100.703 E9.7205
G1 X66.606 Y100.424 E9.75174
G1 X67.538 Y100.222 E9.78346
G1 X67.939 Y100.155 E9.79698
G1 X68.866 Y100.043 E9.82804
G1 X69.528 Y100.013 E9.85008
G1 X70.631 Y100.002 E9.88677
G1 X71.371 Y100.014 E9.91139
G1 X72.308 Y100.071 E9.94261
G1 X73.201 Y100.204 E9.97264
G1 X74.021 Y100.396 E10.00065
G1 X74.943 Y100.652 E10.03247
G1 X77.481 Y101.316 E10.11973
G1 X79.927 Y101.882 E10.20323
G1 X82.468 Y102.395 E10.28945
G1 X84.892 Y102.813 E10.37126
G1 X87.43 Y103.179 E10.45655
G1 X89.92 Y103.465 E10.53991
G1 X92.437 Y103.683 E10.62394
G1 X94.943 Y103.827 E10.70743
G1 X97.52 Y103.903 E10.79318
G1 X100.15 Y103.907 E10.88065
G1 X100.831 Y103.9 E10.90331
G1 X145.466 Y103.896 E12.38787
G1 X148.062 Y103.859 E12.47422
G1 X150.618 Y103.751 E12.55931
G1 X153.127 Y103.572 E12.64297
G1 X155.629 Y103.324 E12.7266
G1 X158.235 Y102.992 E12.81397
G1 X159.259 Y102.913 E12.84813
G1 X159.875 Y102.9 E12.86863
G1 X165.687 Y102.901 E13.06194
G1 X166.403 Y102.911 E13.08575
G1 X167.339 Y102.965 E13.11694
G1 X168.268 Y103.104 E13.14818
G1 X169.18 Y103.323 E13.17937
G1 X170.07 Y103.622 E13.2106
G1 X170.929 Y103.999 E13.2418
G1 X171.752 Y104.45 E13.27302
G1 X172.532 Y104.972 E13.30423
G1 X173.236 Y105.538 E13.33428
G1 X173.938 Y106.213 E13.36667
G1 X174.553 Y106.922 E13.39788
G1 X175.083 Y107.653 E13.42792
G1 X175.583 Y108.489 E13.46031
G1 X175.991 Y109.334 E13.49152
G1 X176.322 Y110.212 E13.52273
G1 X176.574 Y111.116 E13.55395
G1 X176.74 Y112.004 E13.58399
G1 X176.812 Y112.63 E13.60495
G1 X176.932 Y114.076 E13.65321
G1 X177.061 Y115.358 E13.69606
G1 X177.126 Y116.107 E13.72107
G1 X177.161 Y116.756 E13.74269
G1 X177.19 Y118.044 E13.78554
G1 X177.21 Y122.381 E13.92979
G1 X177.202 Y123.117 E13.95427
G1 X177.15 Y124.054 E13.98548
G1 X177.014 Y124.983 E14.01671
G1 X176.798 Y125.895 E14.04788
G1 X176.502 Y126.787 E14.07914
G1 X176.128 Y127.646 E14.1103
G1 X175.679 Y128.471 E14.14154
G1 X175.16 Y129.253 E14.17276
G1 X174.596 Y129.959 E14.20281
G1 X173.927 Y130.659 E14.23502
G1 X173.458 Y131.081 E14.256
G1 X171.448 Y132.784 E14.34362
G1 X170.533 Y133.476 E14.38178
G1 X170.093 Y133.772 E14.39942
G1 X169.323 Y134.243 E14.42944
G1 X168.455 Y134.674 E14.46167
G1 X167.877 Y134.908 E14.48241
G1 X167.382 Y135.092 E14.49998
G1 X166.488 Y135.378 E14.5312
G1 X165.575 Y135.584 E14.56233
G1 X164.669 Y135.711 E14.59275
G1 X163.558 Y135.789 E14.6298
G1 X162.633 Y135.799 E14.66057
G1 X161.917 Y135.788 E14.68438
G1 X160.898 Y135.723 E14.71834
G1 X160.58 Y135.687 E14.72899
G1 X159.731 Y135.554 E14.75757
G1 X157.433 Y135.1 E14.83548
G1 X154.909 Y134.671 E14.92063
G1 X152.379 Y134.313 E15.00562
G1 X149.883 Y134.033 E15.08916
G1 X147.369 Y133.821 E15.17307
G1 X144.898 Y133.685 E15.25538
G1 X141.045 Y133.605 E15.38356
G1 X101.053 Y133.599 E16.7137
G1 X100.325 Y133.587 E16.73791
G1 X99.167 Y133.504 E16.77653
G1 X97.813 Y133.33 E16.82193
G1 X95.239 Y133.039 E16.90809
G1 X92.741 Y132.825 E16.99148
G1 X90.201 Y132.682 E17.07609
G1 X87.642 Y132.609 E17.16124
G1 X86.335 Y132.6 E17.20471
G1 X82.756 Y132.6 E17.32375
G1 X80.161 Y132.637 E17.41007
G1 X77.593 Y132.746 E17.49556
G1 X75.109 Y132.922 E17.57838
G1 X72.599 Y133.171 E17.66228
G1 X69.952 Y133.508 E17.75103
G1 X68.925 Y133.587 E17.78528
G1 X68.18 Y133.599 E17.81007
G1 X67.353 Y133.588 E17.83757
G1 X66.416 Y133.534 E17.86879
G1 X65.488 Y133.396 E17.9
G1 X64.575 Y133.177 E17.93122
G1 X63.686 Y132.879 E17.96241
G1 X62.858 Y132.518 E17.99245
G1 X62.003 Y132.052 E18.02484
G1 X61.222 Y131.53 E18.05608
G1 X60.492 Y130.941 E18.08728
G1 X59.841 Y130.316 E18.1173
G1 X59.2 Y129.581 E18.14973
G1 X58.651 Y128.821 E18.18092
G1 X58.169 Y128.015 E18.21215
G1 X57.763 Y127.176 E18.24315
G1 X57.561 Y126.668 E18.26134
G1 X56.58 Y124.015 E18.35541
G1 X56.109 Y122.793 E18.39897
G1 X55.812 Y121.903 E18.43018
G1 X55.594 Y120.989 E18.46143
G1 X55.462 Y120.096 E18.49146
G1 X55.408 Y119.286 E18.51846
G1 X55.395 Y118.67 E18.53895
G1 X55.396 Y116.515 E18.61062
G1 X55.408 Y115.813 E18.63398
G1 X55.466 Y114.877 E18.66517
G1 X55.607 Y113.948 E18.69642
G1 X55.819 Y113.071 E18.72643
G1 X56.107 Y112.209 E18.75666
G1 X57.014 Y109.842 E18.84097
G1 X57.548 Y108.372 E18.89298
G1 X57.908 Y107.505 E18.92421
G1 X58.344 Y106.674 E18.95542
G1 X58.852 Y105.884 E18.98666
G1 X59.427 Y105.143 E19.01786
G1 X60.04 Y104.48 E19.04789
G1 X60.656 Y103.917 E19.07564
G1 X61.961 Y102.812 E19.13252
G1 X62.704 Y102.238 E19.16375
G1 X63.496 Y101.733 E19.19499
G0 F6000 X63.681 Y102.088
G1 F1200 X64.483 Y101.669 E19.22508
G1 X64.995 Y101.43 E19.24388
G1 X65.829 Y101.085 E19.2739
G1 X66.691 Y100.815 E19.30394
G1 X67.623 Y100.613 E19.33566
G1 X67.987 Y100.552 E19.34793
G1 X68.884 Y100.443 E19.37799
G1 X69.532 Y100.413 E19.39956
G1 X70.625 Y100.402 E19.43592
G1 X71.347 Y100.413 E19.45993
G1 X72.249 Y100.467 E19.48999
G1 X73.142 Y100.6 E19.52002
G1 X73.914 Y100.782 E19.5464
G1 X74.836 Y101.037 E19.57821
G1 X77.391 Y101.706 E19.66606
G1 X79.837 Y102.272 E19.74956
G1 X82.393 Y102.788 E19.83629
G1 X84.835 Y103.209 E19.91871
G1 X87.373 Y103.575 E20.004
G1 X89.886 Y103.864 E20.08813
G1 X92.403 Y104.081 E20.17216
G1 X94.931 Y104.227 E20.25638
G1 X97.508 Y104.303 E20.34213
G1 X100.153 Y104.307 E20.4301
G1 X100.831 Y104.3 E20.45265
G1 X145.472 Y104.296 E21.93742
G1 X148.079 Y104.259 E22.02414
G1 X150.635 Y104.151 E22.10923
G1 X153.158 Y103.971 E22.19335
G1 X155.68 Y103.721 E22.27765
G1 X158.266 Y103.391 E22.36436
G1 X159.268 Y103.313 E22.39778
G1 X159.875 Y103.3 E22.41798
G1 X165.682 Y103.301 E22.61112
G1 X166.38 Y103.31 E22.63434
G1 X167.281 Y103.361 E22.66435
G1 X168.175 Y103.493 E22.69441
G1 X169.053 Y103.702 E22.72443
G1 X169.91 Y103.989 E22.75449
G1 X170.737 Y104.35 E22.7845
G1 X171.53 Y104.783 E22.81455
G1 X172.281 Y105.284 E22.84458
G1 X172.985 Y105.85 E22.87462
G1 X173.636 Y106.476 E22.90466
G1 X174.229 Y107.157 E22.93469
G1 X174.759 Y107.888 E22.96472
G1 X175.223 Y108.663 E22.99477
G1 X175.617 Y109.476 E23.02482
G1 X175.937 Y110.32 E23.05484
G1 X176.181 Y111.19 E23.08489
G1 X176.347 Y112.078 E23.11494
G1 X176.413 Y112.663 E23.13452
G1 X176.534 Y114.116 E23.18301
G1 X176.662 Y115.393 E23.2257
G1 X176.727 Y116.142 E23.2507
G1 X176.761 Y116.765 E23.27146
G1 X176.79 Y118.046 E23.31407
G1 X176.81 Y122.377 E23.45812
G1 X176.803 Y123.095 E23.48201
G1 X176.754 Y123.997 E23.51205
G1 X176.625 Y124.891 E23.54209
G1 X176.418 Y125.77 E23.57213
G1 X176.135 Y126.628 E23.60218
G1 X175.776 Y127.456 E23.63219
G1 X175.346 Y128.25 E23.66223
G1 X174.847 Y129.003 E23.69227
G1 X174.283 Y129.709 E23.72233
G1 X173.659 Y130.362 E23.75237
G1 X173.199 Y130.776 E23.77295
G1 X171.207 Y132.465 E23.85982
G1 X170.31 Y133.144 E23.89723
G1 X169.884 Y133.431 E23.91432
G1 X169.114 Y133.902 E23.94434
G1 X168.304 Y134.303 E23.9744
G1 X167.738 Y134.533 E23.99472
G1 X167.259 Y134.711 E24.01172
G1 X166.399 Y134.988 E24.04177
G1 X165.519 Y135.188 E24.07178
G1 X164.641 Y135.312 E24.10127
G1 X163.554 Y135.389 E24.13752
G1 X162.639 Y135.399 E24.16795
G1 X161.942 Y135.389 E24.19114
G1 X160.943 Y135.326 E24.22443
G1 X160.642 Y135.292 E24.23451
G1 X159.809 Y135.162 E24.26255
G1 X157.506 Y134.707 E24.34063
G1 X154.965 Y134.275 E24.42635
G1 X152.435 Y133.917 E24.51134
G1 X149.916 Y133.634 E24.59565
G1 X147.402 Y133.423 E24.67956
G1 X144.906 Y133.285 E24.7627
G1 X141.053 Y133.205 E24.89088
G1 X101.059 Y133.199 E26.22109
G1 X100.353 Y133.188 E26.24457
G1 X99.218 Y133.107 E26.28242
G1 X97.864 Y132.934 E26.32782
G1 X95.273 Y132.64 E26.41455
G1 X92.775 Y132.427 E26.49793
G1 X90.212 Y132.282 E26.58332
G1 X87.653 Y132.209 E26.66846
G1 X86.338 Y132.2 E26.7122
G1 X82.75 Y132.2 E26.83154
G1 X80.144 Y132.237 E26.91822
G1 X77.576 Y132.346 E27.00371
G1 X75.074 Y132.523 E27.08714
G1 X72.548 Y132.774 E27.17157
G1 X69.921 Y133.109 E27.25965
G1 X68.918 Y133.187 E27.29311
G1 X68.185 Y133.199 E27.31749
G1 X67.376 Y133.189 E27.3444
G1 X66.474 Y133.138 E27.37445
G1 X65.581 Y133.007 E27.40447
G1 X64.702 Y132.798 E27.43452
G1 X63.846 Y132.512 E27.46454
G1 X63.018 Y132.151 E27.49458
G1 X62.225 Y131.719 E27.52462
G1 X61.473 Y131.218 E27.55467
G1 X60.769 Y130.652 E27.58471
G1 X60.118 Y130.027 E27.61473
G1 X59.524 Y129.346 E27.64479
G1 X58.994 Y128.615 E27.67482
G1 X58.529 Y127.841 E27.70485
G1 X58.135 Y127.028 E27.7349
G1 X57.936 Y126.529 E27.75277
G1 X56.955 Y123.876 E27.84684
G1 X56.488 Y122.666 E27.88998
G1 X56.201 Y121.81 E27.92001
G1 X55.99 Y120.931 E27.95008
G1 X55.858 Y120.038 E27.9801
G1 X55.808 Y119.277 E28.00547
G1 X55.795 Y118.67 E28.02566
G1 X55.796 Y116.521 E28.09714
G1 X55.807 Y115.837 E28.11989
G1 X55.862 Y114.936 E28.14991
G1 X55.996 Y114.042 E28.17998
G1 X56.208 Y113.165 E28.20999
G1 X56.481 Y112.352 E28.23851
G1 X57.388 Y109.985 E28.32282
G1 X57.918 Y108.525 E28.37448
G1 X58.263 Y107.69 E28.40453
G1 X58.681 Y106.89 E28.43455
G1 X59.168 Y106.129 E28.4646
G1 X59.721 Y105.415 E28.49464
G1 X60.334 Y104.752 E28.52467
G1 X60.914 Y104.222 E28.5508
G1 X62.206 Y103.128 E28.60711
G1 X62.92 Y102.575 E28.63715
G1 X63.681 Y102.088 E28.6672
G1 F2700 E23.6672
G1 F300 Z0.4
G0 F6000 X68.915 Y111.067 Z0.4
G1 F300 Z0.2
G1 F2700 E28.6672
G1 F1200 X69.398 Y110.841 E28.68494
G1 X69.682 Y110.8 E28.69448
G1 X71.153 Y110.802 E28.7434
G1 X71.572 Y110.973 E28.75846
G1 X71.798 Y111.163 E28.76828
G1 X72.32 Y111.81 E28.79593
G1 X72.349 Y111.838 E28.79727
G1 X72.731 Y112.154 E28.81376
G1 X72.858 Y112.2 E28.81825
G1 X72.961 Y112.2 E28.82167
G1 X72.956 Y114.322 E28.89225
G1 X72.906 Y114.339 E28.89401
G1 X72.827 Y114.474 E28.89921
G1 X72.824 Y114.5 E28.90008
G1 X72.212 Y114.5 E28.92044
G1 X72.207 Y112.2 E28.99694
G1 X72.168 Y112.081 E29.0011
G1 X72.007 Y112 E29.0071
G1 X68.633 Y112 E29.11932
G1 X68.514 Y112.039 E29.12348
G1 X68.433 Y112.2 E29.12947
G1 X68.433 Y112.4 E29.13613
G1 X67.697 Y112.4 E29.16061
G1 X67.697 Y112.2 E29.16726
G1 X67.766 Y112.2 E29.16955
G1 X67.886 Y112.16 E29.17376
G1 X68.259 Y111.881 E29.18925
G1 X68.293 Y111.849 E29.19081
G1 X68.601 Y111.478 E29.20684
G1 X68.636 Y111.414 E29.20927
G1 X68.639 Y111.404 E29.20962
G1 X68.915 Y111.067 E29.22411
G0 F6000 X69.166 Y111.391
G1 F1200 X69.512 Y111.229 E29.23681
G1 X69.711 Y111.2 E29.2435
G1 X71.075 Y111.202 E29.28887
G1 X71.363 Y111.319 E29.29921
G1 X71.511 Y111.444 E29.30565
G1 X71.637 Y111.6 E29.31232
G1 X68.995 Y111.6 E29.40019
G1 X69.166 Y111.391 E29.40917
G1 F2700 E24.40917
G1 F300 Z0.4
G0 F6000 X67.169 Y115.583 Z0.4
G1 F300 Z0.2
G1 F2700 E29.40917
G1 F1200 X67.17 Y119.432 E29.53719
G1 X67.038 Y119.276 E29.54399
G1 X67.009 Y119.248 E29.54533
G1 X66.697 Y119 E29.55859
G1 X66.669 Y118.981 E29.55971
G1 X66.381 Y118.824 E29.57062
G1 X66.285 Y118.8 E29.57391
G1 X66.195 Y118.8 E29.57691
G1 X66.195 Y116.2 E29.66338
G1 X66.288 Y116.2 E29.66648
G1 X66.379 Y116.178 E29.66959
G1 X66.673 Y116.028 E29.68057
G1 X66.707 Y116.006 E29.68191
