;FLAVOR:Marlin
;TIME:10295
;Filament used: 10.6948m
;Layer height: 0.2
;MINX:86.415
;MINY:19.333
;MINZ:0.2
;MAXX:197.876
;MAXY:195.624
;MAXZ:26
;Generated with Cura_SteamEngine 5.4.0
M140 S50
M105
M190 S50
M104 S200
M105
M109 S200
M82 ;absolute extrusion mode
; Ender 3 Custom Start G-code
G92 E0 ; Reset Extruder
G28 ; Home all axes
G1 Z2.0 F3000 ; Move Z Axis up little to prevent scratching of Heat Bed
G1 X0.1 Y20 Z0.3 F5000.0 ; Move to start position
G1 X0.1 Y200.0 Z0.3 F1500.0 E15 ; Draw the first line
G1 X0.4 Y200.0 Z0.3 F5000.0 ; Move to side a little
G1 X0.4 Y20 Z0.3 F1500.0 E30 ; Draw the second line
G92 E0 ; Reset Extruder
G1 Z2.0 F3000 ; Move Z Axis up little to prevent scratching of Heat Bed
G1 X5 Y20 Z0.3 F5000.0 ; Move over to prevent blob squish
G92 E0
G92 E0
G1 F2700 E-5
;LAYER_COUNT:130
;LAYER:0
M107
G1 F300 Z0.4
G0 F6000 X87.168 Y31.661 Z0.4
;TYPE:SKIRT
G1 F300 Z0.2
G1 F2700 E0
G1 F1200 X87.575 Y30.739 E0.03352
G1 X88.046 Y29.887 E0.0659
G1 X88.591 Y29.078 E0.09834
G1 X89.182 Y28.35 E0.12953
G1 X89.884 Y27.625 E0.1631
G1 X90.594 Y27.011 E0.19432
G1 X91.413 Y26.421 E0.22789
G1 X92.252 Y25.925 E0.26031
G1 X93.066 Y25.534 E0.29034
G1 X94.043 Y25.166 E0.32507
G1 X94.947 Y24.916 E0.35626
G1 X95.949 Y24.733 E0.39014
G1 X97.12 Y24.637 E0.42922
G1 X97.727 Y24.624 E0.44941
G1 X100.198 Y24.624 E0.5316
G1 X102.782 Y24.587 E0.61755
G1 X105.347 Y24.478 E0.70294
G1 X107.826 Y24.302 E0.7856
G1 X110.327 Y24.055 E0.86919
G1 X112.835 Y23.734 E0.95328
G1 X115.318 Y23.344 E1.03688
G1 X117.758 Y22.89 E1.11943
G1 X120.253 Y22.353 E1.20431
G1 X122.699 Y21.754 E1.28807
G1 X125.084 Y21.097 E1.37035
G1 X128.139 Y20.165 E1.47658
G1 X128.747 Y19.999 E1.49755
G1 X129.392 Y19.844 E1.51961
G1 X129.926 Y19.73 E1.53777
G1 X130.385 Y19.644 E1.5533
G1 X130.972 Y19.55 E1.57308
G1 X131.629 Y19.466 E1.59511
G1 X132.34 Y19.399 E1.61886
G1 X133.076 Y19.353 E1.64339
G1 X133.796 Y19.333 E1.66734
G1 X134.49 Y19.337 E1.69042
G1 X135.176 Y19.365 E1.71326
G1 X135.809 Y19.41 E1.73437
G1 X136.747 Y19.511 E1.76575
G1 X137.411 Y19.613 E1.78809
G1 X138.192 Y19.756 E1.8145
G1 X138.934 Y19.921 E1.83978
G1 X139.545 Y20.078 E1.86076
G1 X140.067 Y20.227 E1.87882
G1 X140.885 Y20.484 E1.90733
G1 X143.415 Y21.245 E1.99521
G1 X145.816 Y21.888 E2.07788
G1 X148.256 Y22.47 E2.16131
G1 X150.767 Y22.995 E2.24663
G1 X153.246 Y23.442 E2.33041
G1 X155.703 Y23.811 E2.41305
G1 X158.205 Y24.116 E2.49688
G1 X160.695 Y24.349 E2.58006
G1 X163.187 Y24.51 E2.66312
G1 X166.579 Y24.621 E2.776
G1 X167.603 Y24.637 E2.81006
G1 X168.575 Y24.696 E2.84245
G1 X169.538 Y24.842 E2.87484
G1 X170.485 Y25.073 E2.90727
G1 X171.407 Y25.387 E2.93966
G1 X172.297 Y25.78 E2.97202
G1 X173.148 Y26.25 E3.00435
G1 X173.899 Y26.752 E3.0344
G1 X174.714 Y27.41 E3.06924
G1 X175.412 Y28.088 E3.1016
G1 X176.048 Y28.825 E3.13398
G1 X176.612 Y29.605 E3.166
G1 X176.941 Y30.14 E3.18688
G1 X178.4 Y32.674 E3.28414
G1 X179.714 Y34.804 E3.36738
G1 X181.102 Y36.918 E3.45149
G1 X182.521 Y38.951 E3.53395
G1 X184.033 Y40.995 E3.61851
G1 X185.599 Y42.989 E3.70284
G1 X187.206 Y44.919 E3.78637
G1 X188.895 Y46.861 E3.87198
G1 X189.357 Y47.436 E3.89651
G1 X189.558 Y47.705 E3.90768
G1 X190.084 Y48.475 E3.93869
G1 X190.424 Y49.063 E3.96128
G1 X190.702 Y49.581 E3.98084
G1 X191.123 Y50.459 E4.01322
G1 X191.466 Y51.373 E4.04569
G1 X191.649 Y51.935 E4.06535
G1 X191.905 Y52.875 E4.09775
G1 X192.084 Y53.877 E4.13161
G1 X192.166 Y54.512 E4.1529
G1 X192.243 Y55.412 E4.18295
G1 X192.223 Y56.711 E4.22616
G1 X192.186 Y57.21 E4.2428
G1 X192.101 Y57.971 E4.26827
G1 X191.928 Y59.1 E4.30626
G1 X187.278 Y86.754 E5.23895
G1 X186.888 Y89.3 E5.32461
G1 X186.574 Y91.818 E5.40901
G1 X186.336 Y94.292 E5.49168
G1 X186.166 Y96.825 E5.57611
G1 X186.066 Y99.354 E5.66029
G1 X186.038 Y101.867 E5.74388
G1 X186.081 Y104.354 E5.82661
G1 X186.195 Y106.86 E5.91005
G1 X186.381 Y109.375 E5.99393
G1 X186.64 Y111.898 E6.07828
G1 X186.966 Y114.386 E6.16174
G1 X187.364 Y116.88 E6.24574
G1 X187.83 Y119.338 E6.32895
G1 X188.367 Y121.803 E6.41286
G1 X188.968 Y124.224 E6.49583
G1 X189.649 Y126.665 E6.58012
G1 X190.397 Y129.079 E6.66417
G1 X191.215 Y131.48 E6.74854
G1 X192.082 Y133.811 E6.83126
G1 X193.045 Y136.185 E6.91646
G1 X194.038 Y138.449 E6.99869
G1 X195.108 Y140.712 E7.08195
G1 X195.57 Y141.617 E7.11574
G1 X196.283 Y143.064 E7.1694
G1 X196.458 Y143.439 E7.18316
G1 X196.758 Y144.145 E7.20867
G1 X196.894 Y144.503 E7.22141
G1 X197.17 Y145.324 E7.25022
G1 X197.305 Y145.792 E7.26642
G1 X197.523 Y146.68 E7.29683
G1 X197.613 Y147.132 E7.31216
G1 X197.747 Y147.987 E7.34094
G1 X197.798 Y148.422 E7.35551
G1 X197.863 Y149.296 E7.38466
G1 X197.876 Y149.717 E7.39867
G1 X197.865 Y150.643 E7.42947
G1 X197.837 Y151.156 E7.44656
G1 X197.756 Y152.012 E7.47516
G1 X197.707 Y152.375 E7.48734
G1 X197.564 Y153.181 E7.51457
G1 X197.466 Y153.633 E7.52995
G1 X197.241 Y154.5 E7.55974
G1 X197.105 Y154.942 E7.57512
G1 X196.731 Y155.97 E7.61151
G1 X196.498 Y156.521 E7.6314
G1 X196.139 Y157.285 E7.65948
G1 X195.988 Y157.574 E7.67032
G1 X195.63 Y158.208 E7.69454
G1 X195.448 Y158.504 E7.7061
G1 X194.979 Y159.211 E7.73432
G1 X194.675 Y159.629 E7.75151
G1 X194.055 Y160.405 E7.78454
G1 X193.745 Y160.758 E7.80017
G1 X193.114 Y161.417 E7.83052
G1 X192.87 Y161.651 E7.84176
G1 X192.325 Y162.141 E7.86614
G1 X191.98 Y162.431 E7.88113
G1 X191.525 Y162.792 E7.90044
G1 X189.749 Y164.123 E7.97426
G1 X187.792 Y165.671 E8.05725
G1 X185.841 Y167.304 E8.14187
G1 X183.967 Y168.968 E8.22523
G1 X182.135 Y170.686 E8.30876
G1 X180.346 Y172.465 E8.39268
G1 X178.592 Y174.309 E8.47732
G1 X176.925 Y176.164 E8.56027
G1 X175.292 Y178.088 E8.64421
G1 X173.722 Y180.048 E8.72773
G1 X172.21 Y182.049 E8.81115
G1 X170.732 Y184.123 E8.89585
G1 X169.344 Y186.192 E8.97872
G1 X168.003 Y188.321 E9.06241
G1 X166.843 Y190.269 E9.13782
G1 X166.306 Y191.081 E9.17019
G1 X165.699 Y191.842 E9.20257
G1 X165.027 Y192.548 E9.23499
G1 X164.296 Y193.19 E9.26735
G1 X163.509 Y193.767 E9.29981
G1 X162.676 Y194.27 E9.33217
G1 X161.801 Y194.698 E9.36457
G1 X160.893 Y195.046 E9.39691
G1 X159.958 Y195.315 E9.42927
G1 X159.071 Y195.488 E9.45933
G1 X157.742 Y195.609 E9.50371
G1 X157.085 Y195.624 E9.52557
G1 X107.979 Y195.623 E11.15884
G1 X107.246 Y195.612 E11.18323
G1 X106.274 Y195.555 E11.21561
G1 X105.311 Y195.409 E11.248
G1 X104.365 Y195.18 E11.28038
G1 X103.441 Y194.868 E11.31281
G1 X102.551 Y194.476 E11.34516
G1 X101.728 Y194.025 E11.37637
G1 X100.889 Y193.464 E11.40994
G1 X100.185 Y192.898 E11.43999
G1 X99.432 Y192.173 E11.47475
G1 X98.795 Y191.437 E11.50713
G1 X98.265 Y190.706 E11.53716
G1 X97.729 Y189.809 E11.57191
G1 X97.307 Y188.931 E11.60431
G1 X96.965 Y188.019 E11.63671
G1 X96.705 Y187.081 E11.66909
G1 X96.527 Y186.112 E11.70185
G1 X96.429 Y184.938 E11.74104
G1 X96.415 Y184.259 E11.76363
G1 X96.406 Y106.574 E14.34744
G1 X96.369 Y103.985 E14.43356
G1 X96.259 Y101.431 E14.51858
G1 X96.085 Y98.968 E14.60071
G1 X95.834 Y96.453 E14.68477
G1 X95.51 Y93.922 E14.76964
G1 X95.123 Y91.46 E14.85253
G1 X94.665 Y88.997 E14.93586
G1 X94.133 Y86.536 E15.0196
G1 X93.541 Y84.116 E15.10246
G1 X92.856 Y81.625 E15.18839
G1 X92.14 Y79.292 E15.26956
G1 X91.315 Y76.847 E15.35538
G1 X90.447 Y74.49 E15.43892
G1 X89.516 Y72.18 E15.52176
G1 X88.506 Y69.857 E15.60601
G1 X87.446 Y67.589 E15.68928
G1 X87.075 Y66.688 E15.72168
G1 X86.786 Y65.758 E15.75408
G1 X86.581 Y64.807 E15.78643
G1 X86.466 Y63.911 E15.81648
G1 X86.429 Y63.277 E15.8376
G1 X86.415 Y62.618 E15.85952
G1 X86.416 Y36.133 E16.74042
G1 X86.428 Y35.432 E16.76374
G1 X86.488 Y34.459 E16.79616
G1 X86.635 Y33.498 E16.8285
G1 X86.866 Y32.55 E16.86095
G1 X87.168 Y31.661 E16.89218
G0 F6000 X87.547 Y31.79
G1 F1200 X87.925 Y30.932 E16.92336
G1 X88.378 Y30.11 E16.95458
G1 X88.902 Y29.33 E16.98583
G1 X89.493 Y28.602 E17.01702
G1 X90.146 Y27.928 E17.04823
G1 X90.856 Y27.314 E17.07945
G1 X91.617 Y26.765 E17.11066
G1 X92.425 Y26.286 E17.1419
G1 X93.239 Y25.895 E17.17194
G1 X94.15 Y25.552 E17.20432
G1 X95.054 Y25.302 E17.23551
G1 X95.982 Y25.132 E17.26689
G1 X97.129 Y25.037 E17.30517
G1 X97.736 Y25.024 E17.32536
G1 X100.204 Y25.024 E17.40745
G1 X102.799 Y24.987 E17.49377
G1 X105.364 Y24.878 E17.57916
G1 X107.857 Y24.701 E17.66228
G1 X110.378 Y24.452 E17.74654
G1 X112.886 Y24.131 E17.83064
G1 X115.38 Y23.739 E17.91461
G1 X117.844 Y23.281 E17.99796
G1 X120.348 Y22.742 E18.08315
G1 X122.794 Y22.143 E18.16691
G1 X125.202 Y21.48 E18.24998
G1 X128.244 Y20.551 E18.35577
G1 X128.841 Y20.388 E18.37636
G1 X129.476 Y20.235 E18.39808
G1 X130 Y20.123 E18.4159
G1 X130.448 Y20.039 E18.43106
G1 X131.023 Y19.947 E18.45043
G1 X131.667 Y19.864 E18.47203
G1 X132.365 Y19.798 E18.49535
G1 X133.087 Y19.753 E18.51941
G1 X133.794 Y19.733 E18.54293
G1 X134.474 Y19.737 E18.56555
G1 X135.148 Y19.764 E18.58798
G1 X135.767 Y19.808 E18.60862
G1 X136.686 Y19.906 E18.63936
G1 X137.339 Y20.006 E18.66134
G1 X138.105 Y20.146 E18.68724
G1 X138.834 Y20.308 E18.71207
G1 X139.435 Y20.463 E18.73272
G1 X139.947 Y20.609 E18.75042
G1 X140.765 Y20.866 E18.77894
G1 X143.302 Y21.628 E18.86705
G1 X145.723 Y22.277 E18.95041
G1 X148.174 Y22.862 E19.03422
G1 X150.686 Y23.387 E19.11958
G1 X153.182 Y23.837 E19.20393
G1 X155.644 Y24.207 E19.28674
G1 X158.156 Y24.513 E19.37091
G1 X160.669 Y24.748 E19.45485
G1 X163.174 Y24.91 E19.53835
G1 X166.566 Y25.021 E19.65122
G1 X167.579 Y25.036 E19.68492
G1 X168.516 Y25.092 E19.71614
G1 X169.444 Y25.231 E19.74735
G1 X170.357 Y25.452 E19.77859
G1 X171.246 Y25.753 E19.80981
G1 X172.104 Y26.131 E19.841
G1 X172.926 Y26.583 E19.8722
G1 X173.677 Y27.085 E19.90224
G1 X174.436 Y27.697 E19.93467
G1 X175.11 Y28.35 E19.96588
G1 X175.724 Y29.059 E19.99708
G1 X176.271 Y29.815 E20.02811
G1 X176.594 Y30.34 E20.04862
G1 X178.054 Y32.874 E20.14588
G1 X179.38 Y35.024 E20.2299
G1 X180.774 Y37.147 E20.31437
G1 X182.199 Y39.189 E20.39719
G1 X183.718 Y41.242 E20.48213
G1 X185.284 Y43.236 E20.56646
G1 X186.904 Y45.182 E20.65068
G1 X188.583 Y47.112 E20.73576
G1 X189.037 Y47.676 E20.75984
G1 X189.228 Y47.931 E20.77044
G1 X189.738 Y48.676 E20.80047
G1 X190.072 Y49.252 E20.82261
G1 X190.342 Y49.754 E20.84157
G1 X190.749 Y50.6 E20.8728
G1 X191.086 Y51.497 E20.90467
G1 X191.263 Y52.041 E20.9237
G1 X191.511 Y52.946 E20.95491
G1 X191.687 Y53.928 E20.98809
G1 X191.767 Y54.546 E21.00881
G1 X191.844 Y55.446 E21.03886
G1 X191.824 Y56.681 E21.07994
G1 X191.788 Y57.166 E21.09611
G1 X191.703 Y57.927 E21.12158
G1 X191.534 Y59.034 E21.15883
G1 X186.884 Y86.688 E22.09152
G1 X186.491 Y89.251 E22.17776
G1 X186.177 Y91.769 E22.26216
G1 X185.938 Y94.254 E22.34519
G1 X185.766 Y96.809 E22.43036
G1 X185.666 Y99.338 E22.51454
G1 X185.638 Y101.863 E22.59853
G1 X185.681 Y104.372 E22.68199
G1 X185.796 Y106.89 E22.76583
G1 X185.983 Y109.416 E22.85007
G1 X186.243 Y111.95 E22.9348
G1 X186.569 Y114.438 E23.01825
G1 X186.971 Y116.954 E23.103
G1 X187.439 Y119.423 E23.18658
G1 X187.976 Y121.888 E23.27049
G1 X188.583 Y124.331 E23.35421
G1 X189.267 Y126.783 E23.43888
G1 X190.018 Y129.208 E23.52332
G1 X190.836 Y131.609 E23.60768
G1 X191.711 Y133.961 E23.69115
G1 X192.674 Y136.335 E23.77636
G1 X193.676 Y138.62 E23.85934
G1 X194.746 Y140.883 E23.9426
G1 X195.211 Y141.794 E23.97662
G1 X195.921 Y143.233 E24.02999
G1 X196.09 Y143.595 E24.04328
G1 X196.384 Y144.287 E24.06828
G1 X196.515 Y144.631 E24.08053
G1 X196.786 Y145.436 E24.10878
G1 X196.917 Y145.887 E24.1244
G1 X197.131 Y146.758 E24.15423
G1 X197.218 Y147.194 E24.16901
G1 X197.35 Y148.033 E24.19726
G1 X197.399 Y148.452 E24.21129
G1 X197.463 Y149.309 E24.23988
G1 X197.476 Y149.713 E24.25332
G1 X197.466 Y150.621 E24.28352
G1 X197.439 Y151.119 E24.30011
G1 X197.36 Y151.958 E24.32814
G1 X197.313 Y152.305 E24.33979
G1 X197.173 Y153.097 E24.36654
G1 X197.079 Y153.532 E24.38134
G1 X196.858 Y154.383 E24.41058
G1 X196.729 Y154.805 E24.42526
G1 X196.355 Y155.833 E24.46164
G1 X196.136 Y156.351 E24.48035
G1 X195.784 Y157.1 E24.50787
G1 X195.633 Y157.389 E24.51872
G1 X195.289 Y157.999 E24.54201
G1 X195.115 Y158.283 E24.55309
G1 X194.655 Y158.976 E24.58075
G1 X194.363 Y159.379 E24.59731
G1 X193.754 Y160.141 E24.62975
G1 X193.444 Y160.494 E24.64538
G1 X192.837 Y161.129 E24.67459
G1 X192.603 Y161.354 E24.68539
G1 X192.068 Y161.835 E24.70932
G1 X191.731 Y162.118 E24.72396
G1 X191.285 Y162.472 E24.7429
G1 X189.509 Y163.803 E24.81671
G1 X187.535 Y165.364 E24.90042
G1 X185.584 Y166.998 E24.98506
G1 X183.693 Y168.676 E25.06915
G1 X181.861 Y170.394 E25.15268
G1 X180.064 Y172.181 E25.23697
G1 X178.302 Y174.033 E25.32199
G1 X176.627 Y175.897 E25.40534
G1 X174.987 Y177.829 E25.48963
G1 X173.41 Y179.798 E25.57353
G1 X171.884 Y181.817 E25.65771
G1 X170.406 Y183.891 E25.74242
G1 X169.012 Y185.969 E25.82564
G1 X167.659 Y188.116 E25.91005
G1 X166.509 Y190.049 E25.98486
G1 X165.993 Y190.832 E26.01605
G1 X165.409 Y191.567 E26.04727
G1 X164.763 Y192.248 E26.07849
G1 X164.059 Y192.868 E26.10969
G1 X163.302 Y193.425 E26.14095
G1 X162.5 Y193.911 E26.17214
G1 X161.657 Y194.325 E26.20338
G1 X160.782 Y194.662 E26.23456
G1 X159.881 Y194.922 E26.26575
G1 X158.994 Y195.095 E26.29581
G1 X157.733 Y195.209 E26.33792
G1 X157.085 Y195.224 E26.35948
G1 X107.985 Y195.223 E27.99255
G1 X107.269 Y195.213 E28.01637
G1 X106.333 Y195.159 E28.04755
G1 X105.404 Y195.02 E28.0788
G1 X104.492 Y194.801 E28.10999
G1 X103.602 Y194.502 E28.14122
G1 X102.743 Y194.125 E28.17242
G1 X101.92 Y193.674 E28.20363
G1 X101.14 Y193.152 E28.23485
G1 X100.436 Y192.586 E28.26489
G1 X99.734 Y191.911 E28.29729
G1 X99.119 Y191.202 E28.3285
G1 X98.589 Y190.471 E28.35853
G1 X98.089 Y189.635 E28.39093
G1 X97.681 Y188.79 E28.42214
G1 X97.35 Y187.912 E28.45335
G1 X97.098 Y187.008 E28.48456
G1 X96.926 Y186.079 E28.51599
G1 X96.828 Y184.905 E28.55517
G1 X96.815 Y184.259 E28.57666
G1 X96.806 Y106.574 E31.16048
G1 X96.769 Y103.979 E31.24679
G1 X96.659 Y101.414 E31.33219
G1 X96.484 Y98.94 E31.41468
G1 X96.232 Y96.413 E31.49914
G1 X95.907 Y93.871 E31.58438
G1 X95.518 Y91.398 E31.66764
G1 X95.058 Y88.924 E31.75134
G1 X94.522 Y86.441 E31.83582
G1 X93.93 Y84.021 E31.91869
G1 X93.241 Y81.519 E32.005
G1 X92.519 Y79.164 E32.08693
G1 X91.694 Y76.719 E32.17275
G1 X90.822 Y74.352 E32.25665
G1 X89.887 Y72.031 E32.33988
G1 X88.873 Y69.698 E32.42449
G1 X87.816 Y67.436 E32.50753
G1 X87.457 Y66.569 E32.53874
G1 X87.177 Y65.673 E32.56996
G1 X86.978 Y64.756 E32.60117
G1 X86.863 Y63.86 E32.63122
G1 X86.829 Y63.268 E32.65094
G1 X86.815 Y62.618 E32.67256
G1 X86.816 Y36.139 E33.55326
G1 X86.827 Y35.456 E33.57598
G1 X86.884 Y34.519 E33.6072
G1 X87.024 Y33.592 E33.63838
G1 X87.245 Y32.679 E33.66963
G1 X87.547 Y31.79 E33.70085
G0 F6000 X87.913 Y31.951
G1 F1200 X88.276 Y31.124 E33.73089
G1 X88.71 Y30.333 E33.7609
G1 X89.213 Y29.582 E33.79096
G1 X89.781 Y28.88 E33.821
G1 X90.408 Y28.23 E33.85104
G1 X91.09 Y27.638 E33.88107
G1 X91.822 Y27.109 E33.91111
G1 X92.598 Y26.647 E33.94115
G1 X93.412 Y26.256 E33.97119
G1 X94.257 Y25.937 E34.00123
G1 X95.127 Y25.695 E34.03126
G1 X96.015 Y25.531 E34.0613
G1 X97.138 Y25.437 E34.09878
G1 X97.745 Y25.424 E34.11897
G1 X100.21 Y25.424 E34.20096
G1 X102.816 Y25.387 E34.28764
G1 X105.381 Y25.278 E34.37303
G1 X107.888 Y25.1 E34.45662
G1 X110.429 Y24.849 E34.54155
G1 X112.937 Y24.528 E34.62565
G1 X115.442 Y24.134 E34.70999
G1 X117.929 Y23.672 E34.79412
G1 X120.443 Y23.131 E34.87965
G1 X122.889 Y22.532 E34.96341
G1 X125.32 Y21.863 E35.04727
G1 X128.349 Y20.937 E35.15262
G1 X128.935 Y20.777 E35.17282
G1 X129.56 Y20.626 E35.19421
G1 X130.074 Y20.516 E35.21169
G1 X130.511 Y20.434 E35.22648
G1 X131.075 Y20.344 E35.24547
G1 X131.705 Y20.262 E35.26661
G1 X132.39 Y20.197 E35.28949
G1 X133.099 Y20.153 E35.31312
G1 X133.792 Y20.133 E35.33618
G1 X134.458 Y20.137 E35.35833
G1 X135.12 Y20.163 E35.38036
G1 X135.725 Y20.206 E35.40054
G1 X136.644 Y20.304 E35.43128
G1 X137.267 Y20.399 E35.45224
G1 X138.019 Y20.537 E35.47767
G1 X138.734 Y20.695 E35.50202
G1 X139.325 Y20.848 E35.52233
G1 X139.827 Y20.991 E35.53969
G1 X140.645 Y21.248 E35.5682
G1 X143.189 Y22.011 E35.65654
G1 X145.63 Y22.666 E35.7406
G1 X148.092 Y23.254 E35.82479
G1 X150.605 Y23.779 E35.91018
G1 X153.118 Y24.232 E35.99511
G1 X155.585 Y24.603 E36.07808
G1 X158.107 Y24.91 E36.16258
G1 X160.643 Y25.147 E36.2473
G1 X163.161 Y25.31 E36.33122
